;This Gcode has been generated specifically for the LulzBot Mini
;Basic settings: Layer height: 0.38 Walls: 1 Fill: 20
;Filament Diameter: 2.85
;Nozzle Size: 0.5
G21                          ; metric values
G90                          ; absolute positioning
M82                          ; set extruder to absolute mode
M107                         ; start with the fan off
G92 E0                       ; set extruder position to 0
M140 S60; get bed heating up
G28                          ; home all
M109 S140                    ; set to cleaning temp and wait
G1 Z150 E-30 F75             ; suck up XXmm of filament
M109 S140                    ; heat up rest of way
G1 X45 Y174 F11520           ; move behind scraper
G1 Z0  F1200                 ; CRITICAL: set Z to height of top of scraper
G1 X45 Y174 Z-.5 F4000       ; wiping ; plunge into wipe pad
G1 X55 Y172 Z-.5 F4000       ; wiping
G1 X45 Y174 Z0 F4000         ; wiping
G1 X55 Y172 F4000            ; wiping
G1 X45 Y174 F4000            ; wiping
G1 X55 Y172 F4000            ; wiping
G1 X45 Y174 F4000            ; wiping
G1 X55 Y172 F4000            ; wiping
G1 X60 Y174 F4000            ; wiping
G1 X80 Y172 F4000            ; wiping
G1 X60 Y174 F4000            ; wiping
G1 X80 Y172 F4000            ; wiping
G1 X60 Y174 F4000            ; wiping
G1 X90 Y172 F4000            ; wiping
G1 X80 Y174 F4000            ; wiping
G1 X100 Y172 F4000           ; wiping
G1 X80 Y174 F4000            ; wiping
G1 X100 Y172 F4000           ; wiping
G1 X80 Y174 F4000            ; wiping
G1 X100 Y172 F4000           ; wiping
G1 X110 Y174 F4000           ; wiping
G1 X100 Y172 F4000           ; wiping
G1 X110 Y174 F4000           ; wiping
G1 X100 Y172 F4000           ; wiping
G1 X110 Y174 F4000           ; wiping
G1 X115 Y172 Z-0.5 F1000     ; wipe slower and bury noz in cleanish area
G1 Z10                       ; raise z
G28 X0 Y0                    ; home x and y
M109 S140                    ; set to probing temp
M204 S300                    ; Set probing acceleration
G29                          ; Probe
M204 S2000                   ; Restore standard acceleration
G1 X5 Y15 Z10 F5000          ; get out the way
G4 S1                        ; pause
M400                         ; clear buffer
M109 S205    ; set extruder temp and wait
G4 S15                       ; wait for bed to temp up
G1 Z2 E0 F75                 ; extrude filament back into nozzle
M140 S60; get bed temping up during first layer

;Layer count: 116
;LAYER:0
M107
G0 F10500 X12.343 Y33.463 Z0.425
;TYPE:SKIRT
G1 F900 X19.173 Y31.186 E0.29977
G1 X24.127 Y36.138 E0.59143
G1 X24.127 Y36.175 E0.59297
G1 X24.727 Y36.375 E0.61931
G1 X24.727 Y36.988 E0.64483
G1 X25.727 Y36.988 E0.68647
G1 X25.727 Y39.220 E0.77940
G1 X26.436 Y39.575 E0.81242
G1 X26.603 Y38.872 E0.84251
G1 X33.857 Y41.284 E1.16081
G1 X34.261 Y41.487 E1.17963
G1 X34.576 Y41.593 E1.19347
G1 X36.039 Y41.603 E1.25439
G1 X36.262 Y41.491 E1.26478
G1 X38.825 Y41.207 E1.37215
G1 X41.152 Y41.013 E1.46938
G1 X43.952 Y40.613 E1.58715
G1 X45.781 Y40.448 E1.66361
G1 X52.727 Y38.130 E1.96851
G1 X52.727 Y39.285 E2.01660
G1 X54.891 Y38.746 E2.10946
G1 X55.083 Y38.682 E2.11789
G1 X56.235 Y38.107 E2.17150
G1 X56.947 Y37.395 E2.21342
G1 X59.119 Y36.670 E2.30877
G1 X60.436 Y36.505 E2.36403
G1 X68.127 Y32.656 E2.72213
G1 X68.127 Y32.922 E2.73321
G1 X68.504 Y32.633 E2.75299
G1 X68.865 Y32.312 E2.77310
G1 X69.400 Y31.869 E2.80202
G1 X70.129 Y31.349 E2.83931
G1 X71.751 Y30.270 E2.92042
G1 X72.423 Y29.927 E2.95184
G1 X73.040 Y29.597 E2.98097
G1 X74.144 Y28.988 E3.03347
G1 X74.932 Y28.635 E3.06942
G1 X75.783 Y28.315 E3.10728
G1 X77.362 Y27.743 E3.17721
G1 X79.009 Y27.423 E3.24707
G1 X79.787 Y27.307 E3.27982
G1 X80.636 Y27.161 E3.31569
G1 X80.889 Y27.123 E3.32634
G1 X81.384 Y27.027 E3.34734
G1 X81.755 Y26.920 E3.36341
G1 X82.449 Y26.751 E3.39316
G1 X83.253 Y26.613 E3.42712
G1 X84.255 Y26.497 E3.46912
G1 X84.810 Y26.389 E3.49266
G1 X85.580 Y26.319 E3.52486
G1 X85.755 Y26.292 E3.53223
G1 X86.776 Y25.996 E3.57649
G1 X87.701 Y25.667 E3.61737
G1 X88.647 Y25.097 E3.66336
G1 X89.024 Y24.894 E3.68119
G1 X89.823 Y24.523 E3.71787
G1 X90.189 Y24.364 E3.73448
G1 X90.994 Y24.090 E3.76989
G1 X91.913 Y23.811 E3.80988
G1 X93.049 Y23.571 E3.85823
G1 X93.424 Y23.478 E3.87431
G1 X93.879 Y23.432 E3.89335
G1 X94.339 Y23.317 E3.91310
G1 X94.856 Y23.178 E3.93539
G1 X95.624 Y23.038 E3.96789
G1 X96.154 Y22.826 E3.99166
G1 X97.279 Y22.576 E4.03965
G1 X97.956 Y22.418 E4.06859
G1 X98.228 Y22.370 E4.08009
G1 X98.662 Y22.245 E4.09890
G1 X99.780 Y21.990 E4.14665
G1 X99.856 Y21.966 E4.14996
G1 X100.144 Y21.818 E4.16345
G1 X100.491 Y21.609 E4.18031
G1 X100.525 Y21.587 E4.18200
G1 X100.594 Y21.495 E4.18679
G1 X101.264 Y20.500 E4.23674
G1 X101.857 Y19.765 E4.27606
G1 X102.635 Y18.925 E4.32373
G1 X103.220 Y18.332 E4.35841
G1 X103.974 Y17.699 E4.39941
G1 X104.477 Y17.280 E4.42667
G1 X104.500 Y17.253 E4.42814
G1 X104.662 Y16.959 E4.44212
G1 X104.788 Y16.744 E4.45249
G1 X105.024 Y16.315 E4.47288
G1 X105.211 Y15.852 E4.49367
G1 X105.302 Y15.489 E4.50926
G1 X105.347 Y14.990 E4.53012
G1 X105.395 Y14.543 E4.54884
G1 X105.674 Y13.473 E4.59488
G1 X105.789 Y13.066 E4.61249
G1 X106.083 Y12.208 E4.65025
G1 X106.906 Y10.835 E4.71691
G1 X107.274 Y10.328 E4.74299
G1 X107.631 Y9.752 E4.77121
G1 X109.290 Y8.010 E4.87137
G1 X110.160 Y8.051 E4.90764
G1 X110.370 Y7.975 E4.91694
G1 X110.393 Y7.973 E4.91790
G1 X110.437 Y7.390 E4.94224
G1 X111.454 Y5.808 E5.02055
G1 X112.947 Y4.778 E5.09607
G1 X113.057 Y4.713 E5.10139
G1 X113.306 Y4.420 E5.11740
G1 X114.140 Y3.751 E5.16192
G1 X114.470 Y3.487 E5.17952
G1 X115.000 Y3.176 E5.20510
G1 X116.003 Y2.754 E5.25041
G1 X116.466 Y2.605 E5.27067
G1 X117.677 Y2.321 E5.32246
G1 X119.245 Y2.186 E5.38799
G1 X120.248 Y2.284 E5.42995
G1 X120.892 Y2.443 E5.45757
G1 X121.777 Y2.823 E5.49767
G1 X122.788 Y3.627 E5.55146
G1 X123.248 Y4.182 E5.58147
G1 X123.694 Y4.838 E5.61450
G1 X124.249 Y5.918 E5.66506
G1 X124.529 Y6.774 E5.70256
G1 X124.675 Y7.242 E5.72297
G1 X124.748 Y7.630 E5.73941
G1 X124.976 Y7.979 E5.75677
G1 X125.382 Y8.940 E5.80021
G1 X125.700 Y9.503 E5.82713
G1 X126.026 Y10.115 E5.85600
G1 X126.442 Y11.048 E5.89854
G1 X126.735 Y11.729 E5.92941
G1 X126.917 Y12.127 E5.94763
G1 X127.548 Y13.441 E6.00832
G1 X128.165 Y14.840 E6.07199
G1 X128.798 Y15.001 E6.09918
G1 X129.475 Y15.173 E6.12827
G1 X130.351 Y15.509 E6.16733
G1 X131.248 Y16.025 E6.21042
G1 X132.208 Y16.689 E6.25902
G1 X132.763 Y17.117 E6.28821
G1 X133.105 Y17.437 E6.30771
G1 X133.227 Y17.583 E6.31563
G1 X133.451 Y17.794 E6.32844
G1 X133.993 Y18.404 E6.36242
G1 X134.297 Y18.748 E6.38154
G1 X135.015 Y19.746 E6.43273
G1 X135.334 Y20.177 E6.45505
G1 X135.868 Y21.012 E6.49632
G1 X136.006 Y21.212 E6.50644
G1 X136.690 Y22.091 E6.55282
G1 X137.475 Y23.132 E6.60710
G1 X137.981 Y24.066 E6.65133
G1 X138.269 Y24.696 E6.68018
G1 X138.540 Y25.192 E6.70371
G1 X138.938 Y25.822 E6.73474
G1 X139.219 Y26.297 E6.75772
G1 X139.539 Y26.954 E6.78815
G1 X139.866 Y27.873 E6.82876
G1 X140.296 Y29.030 E6.88016
G1 X140.287 Y29.065 E6.88166
G1 X140.479 Y29.577 E6.90443
G1 X140.683 Y30.237 E6.93319
G1 X140.907 Y30.938 E6.96384
G1 X141.029 Y32.127 E7.01360
G1 X141.063 Y33.755 E7.08141
G1 X141.067 Y33.849 E7.08532
G1 X141.065 Y34.829 E7.12613
G1 X140.976 Y36.267 E7.18612
G1 X140.890 Y36.899 E7.21268
G1 X140.844 Y37.393 E7.23333
G1 X140.722 Y38.562 E7.28227
G1 X140.534 Y39.610 E7.32661
G1 X140.203 Y40.795 E7.37784
G1 X140.042 Y41.436 E7.40536
G1 X139.742 Y42.564 E7.45396
G1 X139.425 Y43.527 E7.49617
G1 X139.132 Y44.428 E7.53562
G1 X138.707 Y45.336 E7.57736
G1 X138.216 Y46.221 E7.61950
G1 X137.680 Y47.049 E7.66057
G1 X137.272 Y47.615 E7.68963
G1 X136.439 Y48.610 E7.74366
G1 X135.839 Y49.274 E7.78092
G1 X134.947 Y50.202 E7.83452
G1 X134.319 Y50.823 E7.87129
G1 X133.692 Y51.394 E7.90660
G1 X133.437 Y51.620 E7.92079
G1 X133.285 Y51.761 E7.92942
G1 X132.324 Y52.557 E7.98138
G1 X131.564 Y53.141 E8.02129
G1 X130.575 Y53.914 E8.07355
G1 X129.922 Y54.405 E8.10757
G1 X129.119 Y54.929 E8.14750
G1 X128.288 Y55.473 E8.18885
G1 X126.621 Y56.447 E8.26924
G1 X126.103 Y56.768 E8.29462
G1 X124.774 Y57.627 E8.36051
G1 X124.371 Y57.898 E8.38073
G1 X123.625 Y58.334 E8.41670
G1 X122.674 Y58.831 E8.46138
G1 X121.718 Y59.260 E8.50501
G1 X120.186 Y59.902 E8.57418
G1 X119.911 Y60.013 E8.58653
G1 X119.805 Y60.079 E8.59173
G1 X119.345 Y60.446 E8.61623
G1 X119.295 Y60.497 E8.61920
G1 X117.904 Y61.564 E8.69220
G1 X116.635 Y62.484 E8.75746
G1 X115.876 Y62.995 E8.79556
G1 X115.271 Y63.356 E8.82489
G1 X114.770 Y63.653 E8.84914
G1 X114.459 Y63.867 E8.86486
G1 X114.432 Y63.887 E8.86626
G1 X114.023 Y64.263 E8.88939
G1 X113.865 Y64.438 E8.89921
G1 X113.732 Y64.647 E8.90953
G1 X113.730 Y64.650 E8.90968
G1 X113.645 Y64.917 E8.92134
G1 X113.641 Y64.931 E8.92195
G1 X113.516 Y65.793 E8.95822
G1 X113.375 Y67.290 E9.02083
G1 X113.116 Y68.954 E9.09095
G1 X112.855 Y69.974 E9.13478
G1 X112.622 Y70.673 E9.16546
G1 X112.277 Y71.538 E9.20424
G1 X111.947 Y72.199 E9.23500
G1 X111.634 Y72.800 E9.26322
G1 X111.463 Y73.109 E9.27792
G1 X111.031 Y73.782 E9.31122
G1 X110.635 Y74.451 E9.34359
G1 X110.559 Y74.616 E9.35115
G1 X110.502 Y74.780 E9.35838
G1 X110.194 Y75.500 E9.39099
G1 X110.071 Y75.785 E9.40392
G1 X110.060 Y75.839 E9.40621
G1 X109.710 Y76.828 E9.44989
G1 X109.421 Y77.364 E9.47525
G1 X109.236 Y77.899 E9.49882
G1 X109.204 Y77.958 E9.50161
G1 X109.001 Y78.575 E9.52866
G1 X108.887 Y79.005 E9.54718
G1 X108.797 Y79.545 E9.56998
G1 X108.766 Y79.697 E9.57644
G1 X108.737 Y79.990 E9.58869
G1 X108.738 Y79.990 E9.58874
G1 X108.715 Y80.253 E9.59973
G1 X108.710 Y81.158 E9.63741
G1 X108.713 Y81.221 E9.64004
G1 X108.712 Y81.905 E9.66852
G1 X108.760 Y82.740 E9.70334
G1 X108.759 Y82.766 E9.70443
G1 X108.796 Y83.313 E9.72726
G1 X108.869 Y83.802 E9.74784
G1 X108.869 Y83.965 E9.75463
G1 X108.984 Y84.978 E9.79708
G1 X109.030 Y85.907 E9.83581
G1 X109.069 Y87.112 E9.88601
G1 X109.024 Y87.664 E9.90907
G1 X108.903 Y89.057 E9.96729
G1 X108.863 Y89.420 E9.98249
G1 X108.868 Y89.623 E9.99095
G1 X108.781 Y90.159 E10.01356
G1 X108.758 Y90.593 E10.03166
G1 X108.720 Y90.903 E10.04466
G1 X108.731 Y91.452 E10.06752
G1 X108.695 Y92.339 E10.10449
G1 X108.755 Y93.329 E10.14578
G1 X108.859 Y94.720 E10.20386
G1 X108.885 Y95.479 E10.23549
G1 X108.896 Y95.548 E10.23840
G1 X108.949 Y96.869 E10.29344
G1 X109.009 Y97.718 E10.32888
G1 X109.027 Y98.281 E10.35234
G1 X109.000 Y98.517 E10.36223
G1 X109.062 Y99.643 E10.40918
G1 X109.016 Y99.833 E10.41732
G1 X109.064 Y100.670 E10.45223
G1 X109.030 Y101.719 E10.49593
G1 X109.004 Y103.050 E10.55136
G1 X108.987 Y103.402 E10.56604
G1 X109.001 Y104.114 E10.59569
G1 X108.976 Y104.847 E10.62623
G1 X108.828 Y106.247 E10.68484
G1 X108.733 Y106.987 E10.71591
G1 X108.603 Y107.858 E10.75258
G1 X108.181 Y109.573 E10.82612
G1 X108.326 Y109.601 E10.83227
G1 X108.956 Y109.676 E10.85868
G1 X109.841 Y109.730 E10.89560
G1 X111.105 Y109.797 E10.94831
G1 X111.808 Y109.857 E10.97768
G1 X112.933 Y109.916 E11.02459
G1 X113.648 Y110.024 E11.05470
G1 X114.059 Y110.063 E11.07189
G1 X115.449 Y110.351 E11.13099
G1 X116.180 Y110.557 E11.16262
G1 X116.842 Y110.763 E11.19149
G1 X118.101 Y111.246 E11.24763
G1 X118.738 Y111.553 E11.27708
G1 X119.438 Y111.906 E11.30972
G1 X120.215 Y112.385 E11.34773
G1 X121.071 Y112.977 E11.39106
G1 X121.856 Y113.600 E11.43279
G1 X122.781 Y114.498 E11.48647
G1 X123.322 Y115.066 E11.51913
G1 X124.038 Y116.001 E11.56817
G1 X124.578 Y116.718 E11.60554
G1 X125.093 Y117.483 E11.64394
G1 X125.435 Y118.006 E11.66996
G1 X125.809 Y118.668 E11.70162
G1 X125.808 Y118.668 E11.70166
G1 X126.302 Y119.540 E11.74339
G1 X126.769 Y120.494 E11.78762
G1 X126.928 Y120.830 E11.80309
G1 X127.377 Y121.927 E11.85245
G1 X127.949 Y123.678 E11.92915
G1 X128.057 Y124.027 E11.94436
G1 X128.208 Y124.704 E11.97324
G1 X128.464 Y125.969 E12.02698
G1 X128.604 Y127.180 E12.07774
G1 X128.668 Y128.144 E12.11797
G1 X128.703 Y128.522 E12.13377
G1 X128.714 Y129.391 E12.16996
G1 X128.713 Y129.391 E12.17000
G1 X128.728 Y130.167 E12.20232
G1 X128.672 Y130.981 E12.23629
G1 X128.574 Y131.770 E12.26940
G1 X128.510 Y132.448 E12.29775
G1 X128.400 Y133.271 E12.33233
G1 X128.235 Y134.049 E12.36544
G1 X128.233 Y134.059 E12.36586
G1 X128.247 Y134.275 E12.37488
G1 X127.658 Y136.208 E12.45902
G1 X127.157 Y137.628 E12.52172
G1 X126.763 Y138.734 E12.57060
G1 X126.457 Y139.552 E12.60697
G1 X126.204 Y139.987 E12.62792
G1 X125.720 Y141.132 E12.67968
G1 X125.219 Y141.646 E12.70957
G1 X124.820 Y142.136 E12.73588
G1 X124.727 Y142.228 E12.74132
G1 X124.393 Y142.656 E12.76393
G1 X124.225 Y142.776 E12.77253
G1 X123.935 Y143.087 E12.79023
G1 X123.672 Y143.393 E12.80703
G1 X122.558 Y144.845 E12.88323
G1 X121.823 Y145.709 E12.93047
G1 X121.399 Y146.231 E12.95847
G1 X120.371 Y147.205 E13.01743
G1 X119.596 Y147.846 E13.05931
G1 X119.167 Y148.126 E13.08064
G1 X119.065 Y148.208 E13.08609
G1 X118.131 Y148.792 E13.13196
G1 X116.641 Y149.560 E13.20175
G1 X116.211 Y149.754 E13.22139
G1 X115.372 Y150.055 E13.25851
G1 X114.531 Y150.481 E13.29776
G1 X113.760 Y150.839 E13.33316
G1 X113.488 Y150.984 E13.34599
G1 X112.864 Y151.361 E13.37635
G1 X112.657 Y151.490 E13.38650
G1 X112.001 Y151.811 E13.41691
G1 X111.227 Y152.165 E13.45235
G1 X110.274 Y152.482 E13.49417
G1 X109.470 Y152.733 E13.52924
G1 X108.686 Y152.891 E13.56254
G1 X108.432 Y152.957 E13.57347
G1 X108.211 Y153.034 E13.58321
G1 X108.052 Y153.112 E13.59059
G1 X107.084 Y153.437 E13.63310
G1 X106.570 Y153.539 E13.65492
G1 X106.051 Y153.687 E13.67739
G1 X104.672 Y153.800 E13.73501
G1 X103.689 Y153.783 E13.77594
G1 X102.930 Y153.700 E13.80773
G1 X102.323 Y153.603 E13.83333
G1 X102.232 Y153.566 E13.83742
G1 X101.832 Y153.512 E13.85422
G1 X100.985 Y153.426 E13.88967
G1 X99.932 Y153.262 E13.93405
G1 X98.734 Y152.997 E13.98513
G1 X98.372 Y152.886 E14.00090
G1 X97.587 Y152.552 E14.03642
G1 X96.872 Y152.053 E14.07273
G1 X96.586 Y151.879 E14.08667
G1 X95.872 Y151.263 E14.12593
G1 X95.855 Y151.235 E14.12729
G1 X95.628 Y151.093 E14.13844
G1 X94.575 Y150.291 E14.19356
G1 X94.537 Y150.240 E14.19620
G1 X94.412 Y150.166 E14.20225
G1 X93.993 Y149.822 E14.22483
G1 X93.408 Y149.432 E14.25410
G1 X93.271 Y149.299 E14.26205
G1 X93.164 Y149.232 E14.26731
G1 X92.528 Y148.651 E14.30318
G1 X92.017 Y148.240 E14.33048
G1 X91.449 Y147.783 E14.36084
G1 X90.951 Y147.411 E14.38672
G1 X90.711 Y147.154 E14.40136
G1 X90.190 Y146.681 E14.43066
G1 X89.529 Y145.951 E14.47166
G1 X88.858 Y145.032 E14.51904
G1 X88.440 Y144.286 E14.55465
G1 X88.198 Y143.750 E14.57914
G1 X88.184 Y143.738 E14.57990
G1 X87.802 Y143.486 E14.59896
G1 X87.322 Y143.260 E14.62105
G1 X86.133 Y142.697 E14.67583
G1 X85.671 Y142.496 E14.69681
G1 X85.272 Y142.211 E14.71722
G1 X85.040 Y142.110 E14.72776
G1 X84.212 Y141.426 E14.77248
G1 X84.037 Y141.285 E14.78183
G1 X83.956 Y141.233 E14.78584
G1 X83.807 Y141.202 E14.79218
G1 X83.649 Y141.191 E14.79877
G1 X82.989 Y141.212 E14.82627
G1 X81.299 Y141.402 E14.89708
G1 X80.740 Y141.444 E14.92042
G1 X80.133 Y141.445 E14.94570
G1 X79.346 Y141.465 E14.97847
G1 X78.501 Y141.424 E15.01370
G1 X77.512 Y141.335 E15.05505
G1 X75.993 Y141.191 E15.11858
G1 X75.017 Y140.999 E15.16000
G1 X73.969 Y140.682 E15.20558
G1 X73.495 Y140.540 E15.22619
G1 X72.856 Y140.294 E15.25470
G1 X72.389 Y140.167 E15.27485
G1 X71.872 Y139.989 E15.29762
G1 X70.622 Y139.620 E15.35188
G1 X69.897 Y139.373 E15.38378
G1 X69.291 Y139.163 E15.41048
G1 X68.853 Y138.994 E15.43003
G1 X68.163 Y138.642 E15.46228
G1 X67.930 Y139.812 E15.51195
G1 X61.262 Y139.812 E15.78960
G1 X60.127 Y140.380 E15.84244
G1 X60.127 Y140.892 E15.86376
G1 X54.813 Y141.336 E16.08580
G1 X52.686 Y142.398 E16.18479
G1 X53.414 Y144.153 E16.26390
G1 X45.010 Y145.551 E16.61863
G1 X43.218 Y144.961 E16.69719
G1 X41.004 Y145.053 E16.78945
G1 X41.008 Y145.240 E16.79724
G1 X32.408 Y145.612 E17.15566
G1 X30.619 Y145.612 E17.23015
G1 X27.669 Y145.317 E17.35360
G1 X19.424 Y145.409 E17.69692
G1 X18.001 Y145.612 E17.75677
G1 X12.403 Y145.612 E17.98986
G1 X12.403 Y142.062 E18.13768
G1 X12.203 Y141.862 E18.14945
G1 X12.203 Y136.538 E18.37114
G1 X12.403 Y136.338 E18.38291
G1 X12.403 Y133.738 E18.49117
G1 X12.603 Y133.538 E18.50295
G1 X12.603 Y130.413 E18.63307
G1 X18.672 Y127.396 E18.91527
G1 X23.065 Y129.588 E19.11969
G1 X26.198 Y129.588 E19.25014
G1 X26.386 Y130.043 E19.27064
G1 X28.177 Y130.181 E19.34544
G1 X29.164 Y130.040 E19.38695
G1 X30.810 Y129.216 E19.46359
G1 X32.306 Y128.842 E19.52780
G1 X34.249 Y128.627 E19.60920
G1 X35.403 Y128.241 E19.65987
G1 X35.403 Y127.188 E19.70371
G1 X36.203 Y127.188 E19.73702
G1 X36.203 Y126.788 E19.75368
G1 X36.803 Y126.788 E19.77866
G1 X36.803 Y126.588 E19.78699
G1 X39.949 Y126.588 E19.91798
G1 X41.045 Y125.501 E19.98225
G1 X41.436 Y125.305 E20.00046
G1 X42.003 Y124.738 E20.03385
G1 X42.003 Y124.538 E20.04218
G1 X45.128 Y121.413 E20.22619
G1 X46.159 Y121.242 E20.26971
G1 X46.438 Y121.103 E20.28269
G1 X46.838 Y120.703 E20.30624
G1 X47.238 Y120.503 E20.32486
G1 X47.839 Y119.902 E20.36025
G1 X48.640 Y119.502 E20.39753
G1 X49.449 Y118.693 E20.44517
G1 X50.674 Y118.286 E20.49892
G1 X51.437 Y117.904 E20.53445
G1 X51.530 Y117.811 E20.53992
G1 X51.443 Y116.986 E20.57447
G1 X53.084 Y116.657 E20.64415
G1 X53.273 Y116.468 E20.65528
G1 X54.269 Y116.420 E20.69680
G1 X54.835 Y116.306 E20.72084
G1 X55.353 Y115.788 E20.75135
G1 X57.753 Y115.788 E20.85128
G1 X58.304 Y115.237 E20.88372
G1 X58.030 Y114.166 E20.92975
G1 X57.892 Y113.386 E20.96273
G1 X57.787 Y112.613 E20.99522
G1 X57.720 Y111.881 E21.02582
G1 X57.682 Y111.122 E21.05747
G1 X57.686 Y110.189 E21.09631
G1 X57.888 Y108.497 E21.16727
G1 X58.113 Y107.347 E21.21606
G1 X58.433 Y106.329 E21.26049
G1 X58.793 Y105.459 E21.29969
G1 X59.197 Y104.734 E21.33425
G1 X59.648 Y104.023 E21.36931
G1 X60.229 Y103.208 E21.41098
G1 X60.412 Y102.913 E21.42544
G1 X60.408 Y102.901 E21.42597
G1 X60.121 Y102.112 E21.46092
G1 X59.882 Y101.447 E21.49035
G1 X59.468 Y99.996 E21.55318
G1 X59.030 Y98.606 E21.61386
G1 X58.624 Y97.219 E21.67403
G1 X58.348 Y95.903 E21.73002
G1 X58.077 Y94.274 E21.79878
G1 X57.862 Y92.936 E21.85521
G1 X57.753 Y92.258 E21.88380
G1 X57.674 Y91.856 E21.90086
G1 X57.520 Y91.283 E21.92556
G1 X57.415 Y90.840 E21.94452
G1 X57.126 Y89.862 E21.98698
G1 X56.509 Y87.580 E22.08541
G1 X56.113 Y86.006 E22.15299
G1 X55.863 Y84.761 E22.20587
G1 X55.695 Y83.469 E22.26012
G1 X55.564 Y81.766 E22.33124
G1 X55.550 Y81.158 E22.35656
G1 X55.539 Y80.719 E22.37484
G1 X55.545 Y80.070 E22.40187
G1 X55.521 Y79.353 E22.43174
G1 X55.345 Y78.020 E22.48772
G1 X55.257 Y77.188 E22.52256
G1 X55.209 Y76.729 E22.54178
G1 X55.157 Y75.880 E22.57719
G1 X55.124 Y75.254 E22.60329
G1 X55.027 Y73.791 E22.66434
G1 X54.924 Y72.411 E22.72196
G1 X54.896 Y71.734 E22.75018
G1 X54.891 Y71.244 E22.77058
G1 X54.940 Y70.022 E22.82150
G1 X55.037 Y68.939 E22.86678
G1 X55.116 Y67.921 E22.90929
G1 X55.207 Y67.240 E22.93790
G1 X55.289 Y66.566 E22.96617
G1 X55.434 Y65.667 E23.00409
G1 X55.435 Y65.667 E23.00413
G1 X55.548 Y64.952 E23.03427
G1 X55.651 Y64.243 E23.06410
G1 X55.789 Y63.302 E23.10370
G1 X55.931 Y62.642 E23.13181
G1 X56.145 Y61.703 E23.17191
G1 X56.375 Y60.847 E23.20882
G1 X56.553 Y60.259 E23.23440
G1 X57.034 Y58.714 E23.30177
G1 X57.180 Y58.212 E23.32354
G1 X55.875 Y58.212 E23.37788
G1 X55.472 Y58.415 E23.39667
G1 X53.274 Y57.315 E23.49901
G1 X53.243 Y57.305 E23.50037
G1 X52.582 Y57.195 E23.52827
G1 X51.735 Y57.212 E23.56354
G1 X49.621 Y57.212 E23.65156
G1 X48.228 Y56.934 E23.71071
G1 X45.937 Y56.955 E23.80611
G1 X44.759 Y57.348 E23.85781
G1 X42.112 Y57.612 E23.96858
G1 X40.564 Y57.612 E24.03303
G1 X38.869 Y57.047 E24.10743
G1 X37.726 Y57.089 E24.15505
G1 X35.877 Y57.275 E24.23243
G1 X31.926 Y57.933 E24.39920
G1 X27.885 Y58.942 E24.57263
G1 X24.203 Y55.263 E24.78936
G1 X24.203 Y54.279 E24.83033
G1 X21.614 Y52.986 E24.95082
G1 X18.566 Y52.223 E25.08165
G1 X17.954 Y51.612 E25.11766
G1 X17.619 Y51.612 E25.13161
G1 X15.287 Y51.145 E25.23064
G1 X10.141 Y46.001 E25.53360
G1 X12.403 Y43.738 E25.66683
G1 X12.403 Y40.962 E25.78241
G1 X12.343 Y40.942 E25.78505
G1 X12.343 Y33.463 E26.09646
G1 F600 E24.59646
G1 Z0.525
G0 F10500 X63.568 Y46.297
;TYPE:WALL-INNER
G1 Z0.425
G1 F600 E26.09646
G1 F900 X63.751 Y45.602 E26.12638
G1 X63.932 Y45.093 E26.14888
G1 X64.309 Y44.287 E26.18593
G1 X64.903 Y43.265 E26.23515
G1 X65.290 Y42.687 E26.26411
G1 X66.019 Y41.681 E26.31584
G1 X66.828 Y40.508 E26.37517
G1 X67.272 Y39.917 E26.40595
G1 X67.632 Y39.464 E26.43004
G1 X68.169 Y38.866 E26.46351
G1 X68.627 Y38.383 E26.49122
G1 X69.035 Y37.962 E26.51563
G1 X69.856 Y37.129 E26.56433
G1 X70.654 Y36.381 E26.60987
G1 X70.861 Y36.180 E26.62189
G1 X71.209 Y35.913 E26.64015
G1 X71.643 Y35.528 E26.66431
G1 X72.540 Y34.848 E26.71118
G1 X73.904 Y33.941 E26.77938
G1 X74.403 Y33.686 E26.80271
G1 X75.068 Y33.330 E26.83412
G1 X76.045 Y32.793 E26.88054
G1 X76.548 Y32.567 E26.90350
G1 X77.249 Y32.303 E26.93469
G1 X78.496 Y31.851 E26.98992
G1 X79.729 Y31.612 E27.04221
G1 X80.456 Y31.503 E27.07282
G1 X81.297 Y31.358 E27.10836
G1 X82.380 Y31.162 E27.15418
G1 X83.300 Y30.916 E27.19384
G1 X83.858 Y30.821 E27.21740
G1 X84.722 Y30.720 E27.25362
G1 X84.818 Y30.716 E27.25763
G1 X85.413 Y30.600 E27.28287
G1 X86.077 Y30.541 E27.31062
G1 X86.673 Y30.450 E27.33573
G1 X88.087 Y30.040 E27.39703
G1 X89.373 Y29.582 E27.45387
G1 X89.598 Y29.484 E27.46409
G1 X90.754 Y28.789 E27.52025
G1 X90.922 Y28.698 E27.52821
G1 X91.575 Y28.395 E27.55818
G1 X92.288 Y28.138 E27.58974
G1 X92.972 Y27.930 E27.61951
G1 X94.007 Y27.711 E27.66356
G1 X94.154 Y27.674 E27.66987
G1 X94.607 Y27.628 E27.68883
G1 X95.406 Y27.430 E27.72310
G1 X95.789 Y27.327 E27.73961
G1 X96.627 Y27.174 E27.77508
G1 X96.951 Y27.084 E27.78909
G1 X97.415 Y26.898 E27.80990
G1 X98.226 Y26.718 E27.84449
G1 X98.807 Y26.583 E27.86933
G1 X99.187 Y26.515 E27.88540
G1 X99.732 Y26.359 E27.90900
G1 X100.877 Y26.098 E27.95790
G1 X101.461 Y25.918 E27.98335
G1 X102.220 Y25.529 E28.01886
G1 X102.767 Y25.198 E28.04548
G1 X103.145 Y24.946 E28.06440
G1 X103.495 Y24.645 E28.08362
G1 X103.688 Y24.450 E28.09504
G1 X104.064 Y23.950 E28.12109
G1 X104.686 Y23.027 E28.16743
G1 X105.078 Y22.540 E28.19347
G1 X105.705 Y21.863 E28.23189
G1 X106.104 Y21.459 E28.25553
G1 X106.701 Y20.958 E28.28798
G1 X107.325 Y20.436 E28.32186
G1 X107.509 Y20.287 E28.33171
G1 X108.032 Y19.644 E28.36622
G1 X108.347 Y19.075 E28.39331
G1 X108.871 Y18.139 E28.43797
G1 X109.148 Y17.451 E28.46885
G1 X109.249 Y17.221 E28.47931
G1 X109.470 Y16.332 E28.51745
G1 X109.508 Y16.153 E28.52507
G1 X109.574 Y15.418 E28.55580
G1 X109.587 Y15.308 E28.56041
G1 X109.772 Y14.596 E28.59104
G1 X109.956 Y14.012 E28.61654
G1 X110.456 Y13.178 E28.65703
G1 X110.801 Y12.703 E28.68147
G1 X111.010 Y12.365 E28.69802
G1 X111.159 Y12.209 E28.70700
G1 X111.257 Y12.174 E28.71133
G1 X111.354 Y12.167 E28.71538
G1 X111.438 Y12.138 E28.71908
G1 X111.609 Y12.142 E28.72620
G1 X112.146 Y12.105 E28.74862
G1 X112.410 Y12.100 E28.75961
G1 X112.843 Y11.976 E28.77837
G1 X113.155 Y11.827 E28.79276
G1 X113.610 Y11.434 E28.81780
G1 X114.045 Y10.840 E28.84845
G1 X114.241 Y10.472 E28.86581
G1 X114.534 Y9.550 E28.90609
G1 X114.590 Y8.806 E28.93716
G1 X115.227 Y8.367 E28.96937
G1 X115.403 Y8.263 E28.97788
G1 X115.687 Y8.182 E28.99018
G1 X116.284 Y7.478 E29.02862
G1 X116.886 Y6.995 E29.06075
G1 X117.481 Y6.742 E29.08767
G1 X117.607 Y6.702 E29.09318
G1 X118.344 Y6.529 E29.12470
G1 X119.221 Y6.453 E29.16135
G1 X119.531 Y6.484 E29.17432
G1 X119.579 Y6.503 E29.17647
G1 X119.794 Y6.675 E29.18794
G1 X120.035 Y7.014 E29.20526
G1 X120.315 Y7.558 E29.23073
G1 X120.479 Y8.061 E29.25276
G1 X120.545 Y8.274 E29.26205
G1 X120.614 Y8.635 E29.27735
G1 X120.658 Y8.784 E29.28382
G1 X120.755 Y9.286 E29.30511
G1 X121.210 Y9.984 E29.33980
G1 X121.564 Y10.822 E29.37768
G1 X121.970 Y11.537 E29.41191
G1 X122.202 Y11.973 E29.43248
G1 X122.552 Y12.758 E29.46827
G1 X122.848 Y13.446 E29.49945
G1 X123.070 Y13.930 E29.52162
G1 X123.694 Y15.231 E29.58170
G1 X124.368 Y16.759 E29.65124
G1 X124.432 Y16.901 E29.65773
G1 X124.758 Y17.435 E29.68378
G1 X125.192 Y17.978 E29.71272
G1 X125.445 Y18.228 E29.72753
G1 X125.566 Y18.301 E29.73341
G1 X125.774 Y18.475 E29.74471
G1 X126.000 Y18.623 E29.75595
G1 X126.465 Y18.791 E29.77654
G1 X128.184 Y19.229 E29.85040
G1 X128.523 Y19.359 E29.86552
G1 X128.971 Y19.617 E29.88705
G1 X129.706 Y20.126 E29.92427
G1 X130.014 Y20.364 E29.94048
G1 X130.128 Y20.502 E29.94793
G1 X130.404 Y20.762 E29.96372
G1 X130.813 Y21.222 E29.98935
G1 X130.973 Y21.403 E29.99941
G1 X131.593 Y22.264 E30.04359
G1 X131.831 Y22.587 E30.06029
G1 X132.325 Y23.360 E30.09849
G1 X132.579 Y23.727 E30.11707
G1 X133.313 Y24.670 E30.16683
G1 X133.889 Y25.434 E30.20667
G1 X134.182 Y25.974 E30.23225
G1 X134.475 Y26.615 E30.26160
G1 X134.877 Y27.351 E30.29652
G1 X135.305 Y28.027 E30.32983
G1 X135.477 Y28.318 E30.34391
G1 X135.615 Y28.601 E30.35702
G1 X135.880 Y29.346 E30.38994
G1 X136.095 Y30.087 E30.42207
G1 X136.270 Y30.456 E30.43907
G1 X136.458 Y30.956 E30.46131
G1 X136.635 Y31.530 E30.48632
G1 X136.726 Y31.812 E30.49866
G1 X136.785 Y32.385 E30.52265
G1 X136.816 Y33.895 E30.58553
G1 X136.818 Y33.933 E30.58712
G1 X136.816 Y34.696 E30.61889
G1 X136.745 Y35.852 E30.66711
G1 X136.668 Y36.414 E30.69073
G1 X136.616 Y36.971 E30.71402
G1 X136.514 Y37.956 E30.75526
G1 X136.387 Y38.662 E30.78512
G1 X136.107 Y39.662 E30.82836
G1 X135.930 Y40.364 E30.85851
G1 X135.665 Y41.361 E30.90146
G1 X135.388 Y42.202 E30.93833
G1 X135.173 Y42.863 E30.96727
G1 X134.919 Y43.407 E30.99227
G1 X134.574 Y44.028 E31.02185
G1 X134.160 Y44.667 E31.05355
G1 X133.921 Y44.999 E31.07059
G1 X133.228 Y45.825 E31.11548
G1 X132.724 Y46.384 E31.14682
G1 X131.929 Y47.210 E31.19456
G1 X131.398 Y47.735 E31.22565
G1 X130.855 Y48.230 E31.25624
G1 X130.479 Y48.568 E31.27729
G1 X129.687 Y49.225 E31.32014
G1 X128.973 Y49.773 E31.35762
G1 X127.984 Y50.547 E31.40991
G1 X127.492 Y50.916 E31.43552
G1 X126.049 Y51.860 E31.50731
G1 X124.436 Y52.803 E31.58511
G1 X123.822 Y53.182 E31.61515
G1 X122.460 Y54.063 E31.68270
G1 X122.116 Y54.294 E31.69995
G1 X121.558 Y54.620 E31.72686
G1 X120.828 Y55.002 E31.76116
G1 X120.015 Y55.367 E31.79827
G1 X118.572 Y55.972 E31.86342
G1 X117.983 Y56.210 E31.88987
G1 X117.359 Y56.595 E31.92040
G1 X116.612 Y57.190 E31.96017
G1 X116.503 Y57.274 E31.96590
G1 X116.463 Y57.315 E31.96828
G1 X115.374 Y58.150 E32.02542
G1 X114.188 Y59.009 E32.08639
G1 X113.609 Y59.399 E32.11546
G1 X113.100 Y59.703 E32.14015
G1 X112.476 Y60.073 E32.17035
G1 X111.999 Y60.401 E32.19446
G1 X111.725 Y60.604 E32.20866
G1 X110.993 Y61.278 E32.25009
G1 X110.623 Y61.689 E32.27311
G1 X110.408 Y61.956 E32.28739
G1 X110.114 Y62.389 E32.30918
G1 X109.815 Y62.941 E32.33532
G1 X109.557 Y63.749 E32.37064
G1 X109.465 Y64.119 E32.38651
G1 X109.297 Y65.279 E32.43532
G1 X109.157 Y66.763 E32.49738
G1 X108.949 Y68.099 E32.55368
G1 X108.776 Y68.777 E32.58281
G1 X108.394 Y69.804 E32.62844
G1 X108.165 Y70.262 E32.64976
G1 X107.896 Y70.779 E32.67403
G1 X107.410 Y71.556 E32.71219
G1 X106.866 Y72.476 E32.75669
G1 X106.612 Y73.026 E32.78191
G1 X106.292 Y73.819 E32.81752
G1 X105.998 Y74.500 E32.84841
G1 X105.957 Y74.698 E32.85682
G1 X105.814 Y75.101 E32.87463
G1 X105.519 Y75.648 E32.90051
G1 X105.342 Y76.161 E32.92310
G1 X105.290 Y76.254 E32.92754
G1 X105.051 Y76.985 E32.95956
G1 X104.983 Y77.123 E32.96597
G1 X104.859 Y77.599 E32.98645
G1 X104.856 Y77.631 E32.98779
G1 X104.728 Y78.110 E33.00843
G1 X104.617 Y78.776 E33.03654
G1 X104.559 Y79.062 E33.04870
G1 X104.505 Y79.619 E33.07200
G1 X104.467 Y80.056 E33.09026
G1 X104.461 Y81.228 E33.13906
G1 X104.464 Y81.300 E33.14206
G1 X104.463 Y82.031 E33.17250
G1 X104.507 Y82.788 E33.20407
G1 X104.506 Y82.841 E33.20628
G1 X104.570 Y83.781 E33.24551
G1 X104.620 Y84.119 E33.25974
G1 X104.620 Y84.206 E33.26336
G1 X104.746 Y85.320 E33.31004
G1 X104.784 Y86.074 E33.34147
G1 X104.814 Y87.011 E33.38051
G1 X104.790 Y87.310 E33.39300
G1 X104.676 Y88.626 E33.44800
G1 X104.608 Y89.237 E33.47360
G1 X104.610 Y89.331 E33.47751
G1 X104.549 Y89.707 E33.49337
G1 X104.522 Y90.229 E33.51514
G1 X104.467 Y90.686 E33.53430
G1 X104.481 Y91.412 E33.56454
G1 X104.449 Y92.185 E33.59675
G1 X104.435 Y92.291 E33.60120
G1 X104.517 Y93.639 E33.65744
G1 X104.616 Y94.954 E33.71234
G1 X104.633 Y95.461 E33.73347
G1 X104.620 Y95.718 E33.74418
G1 X104.661 Y95.974 E33.75498
G1 X104.707 Y97.132 E33.80323
G1 X104.765 Y97.935 E33.83675
G1 X104.770 Y98.103 E33.84375
G1 X104.737 Y98.387 E33.85566
G1 X104.785 Y99.259 E33.89202
G1 X104.754 Y99.387 E33.89750
G1 X104.750 Y99.646 E33.90829
G1 X104.811 Y100.711 E33.95271
G1 X104.783 Y101.589 E33.98928
G1 X104.758 Y102.885 E34.04326
G1 X104.736 Y103.331 E34.06185
G1 X104.751 Y104.091 E34.09350
G1 X104.735 Y104.541 E34.11225
G1 X104.606 Y105.763 E34.16341
G1 X104.525 Y106.394 E34.18990
G1 X104.429 Y107.036 E34.21693
G1 X103.943 Y109.012 E34.30166
G1 X103.895 Y109.190 E34.30934
G1 X103.822 Y109.775 E34.33388
G1 X103.786 Y110.081 E34.34671
G1 X103.808 Y110.501 E34.36422
G1 X103.806 Y110.547 E34.36614
G1 X103.817 Y110.760 E34.37502
G1 X104.070 Y111.424 E34.40461
G1 X104.438 Y111.998 E34.43300
G1 X105.202 Y112.818 E34.47966
G1 X105.502 Y113.062 E34.49577
G1 X106.019 Y113.340 E34.52021
G1 X106.121 Y113.400 E34.52513
G1 X106.927 Y113.658 E34.56037
G1 X107.674 Y113.802 E34.59205
G1 X108.573 Y113.910 E34.62975
G1 X109.585 Y113.971 E34.67196
G1 X110.811 Y114.037 E34.72309
G1 X111.505 Y114.096 E34.75209
G1 X112.511 Y114.149 E34.79403
G1 X113.132 Y114.243 E34.82018
G1 X113.432 Y114.271 E34.83273
G1 X114.426 Y114.478 E34.87501
G1 X114.983 Y114.635 E34.89910
G1 X115.447 Y114.779 E34.91933
G1 X116.414 Y115.151 E34.96247
G1 X116.869 Y115.369 E34.98348
G1 X117.370 Y115.622 E35.00685
G1 X117.892 Y115.944 E35.03239
G1 X118.536 Y116.389 E35.06498
G1 X119.047 Y116.795 E35.09216
G1 X119.759 Y117.487 E35.13350
G1 X120.088 Y117.832 E35.15335
G1 X120.651 Y118.566 E35.19186
G1 X121.115 Y119.182 E35.22398
G1 X121.548 Y119.825 E35.25625
G1 X121.802 Y120.214 E35.27560
G1 X122.540 Y121.519 E35.33802
G1 X122.942 Y122.341 E35.37612
G1 X123.384 Y123.388 E35.42344
G1 X123.898 Y124.962 E35.49239
G1 X124.053 Y125.596 E35.51956
G1 X124.263 Y126.629 E35.56345
G1 X124.372 Y127.569 E35.60286
G1 X124.433 Y128.495 E35.64150
G1 X124.456 Y128.747 E35.65203
G1 X124.465 Y129.446 E35.68114
G1 X124.476 Y130.059 E35.70667
G1 X124.441 Y130.575 E35.72820
G1 X124.348 Y131.321 E35.75951
G1 X124.290 Y131.948 E35.78572
G1 X124.210 Y132.544 E35.81076
G1 X124.077 Y133.171 E35.83745
G1 X123.957 Y133.777 E35.86317
G1 X123.627 Y134.862 E35.91039
G1 X123.152 Y136.208 E35.96983
G1 X122.774 Y137.271 E36.01680
G1 X122.604 Y137.724 E36.03695
G1 X122.395 Y138.084 E36.05428
G1 X122.119 Y138.739 E36.08388
G1 X121.665 Y139.281 E36.11332
G1 X121.544 Y139.400 E36.12038
G1 X121.423 Y139.555 E36.12857
G1 X121.116 Y139.880 E36.14718
G1 X121.050 Y139.924 E36.15049
G1 X120.368 Y140.719 E36.19410
G1 X119.261 Y142.164 E36.26989
G1 X118.560 Y142.987 E36.31491
G1 X118.274 Y143.339 E36.33379
G1 X117.557 Y144.018 E36.37491
G1 X117.074 Y144.418 E36.40102
G1 X116.670 Y144.683 E36.42114
G1 X116.601 Y144.738 E36.42481
G1 X116.031 Y145.094 E36.45280
G1 X114.795 Y145.731 E36.51069
G1 X114.615 Y145.812 E36.51891
G1 X113.824 Y146.097 E36.55392
G1 X112.689 Y146.651 E36.60651
G1 X111.864 Y147.035 E36.64440
G1 X111.389 Y147.288 E36.66681
G1 X110.661 Y147.727 E36.70220
G1 X110.594 Y147.769 E36.70550
G1 X109.668 Y148.205 E36.74811
G1 X108.965 Y148.440 E36.77898
G1 X108.409 Y148.613 E36.80322
G1 X107.736 Y148.749 E36.83181
G1 X107.198 Y148.887 E36.85494
G1 X106.573 Y149.104 E36.88249
G1 X106.430 Y149.175 E36.88913
G1 X105.992 Y149.322 E36.90837
G1 X105.568 Y149.406 E36.92637
G1 X105.287 Y149.486 E36.93853
G1 X104.536 Y149.548 E36.96991
G1 X103.960 Y149.538 E36.99390
G1 X103.470 Y149.484 E37.01442
G1 X103.330 Y149.427 E37.02072
G1 X102.347 Y149.293 E37.06203
G1 X101.533 Y149.211 E37.09609
G1 X100.721 Y149.085 E37.13031
G1 X99.823 Y148.886 E37.16860
G1 X99.654 Y148.814 E37.17625
G1 X99.192 Y148.492 E37.19970
G1 X99.135 Y148.457 E37.20249
G1 X99.113 Y148.421 E37.20424
G1 X98.574 Y147.924 E37.23477
G1 X98.048 Y147.595 E37.26060
G1 X97.624 Y147.272 E37.28280
G1 X97.535 Y147.153 E37.28898
G1 X97.071 Y146.801 E37.31323
G1 X96.852 Y146.672 E37.32382
G1 X96.523 Y146.402 E37.34154
G1 X96.087 Y146.111 E37.36336
G1 X95.908 Y145.937 E37.37376
G1 X95.745 Y145.835 E37.38177
G1 X95.291 Y145.420 E37.40738
G1 X94.040 Y144.414 E37.47422
G1 X93.797 Y144.233 E37.48683
G1 X93.698 Y144.128 E37.49284
G1 X93.197 Y143.672 E37.52105
G1 X92.835 Y143.272 E37.54351
G1 X92.436 Y142.726 E37.57167
G1 X92.238 Y142.372 E37.58856
G1 X92.025 Y141.899 E37.61016
G1 X91.885 Y141.508 E37.62745
G1 X91.454 Y140.936 E37.65727
G1 X90.723 Y140.322 E37.69702
G1 X89.884 Y139.770 E37.73884
G1 X89.136 Y139.418 E37.77326
G1 X87.895 Y138.830 E37.83044
G1 X87.777 Y138.779 E37.83579
G1 X87.375 Y138.492 E37.85636
G1 X87.284 Y138.453 E37.86048
G1 X86.529 Y137.837 E37.90106
G1 X86.011 Y137.501 E37.92676
G1 X85.835 Y137.399 E37.93523
G1 X85.141 Y137.139 E37.96609
G1 X84.396 Y136.985 E37.99777
G1 X83.734 Y136.937 E38.02541
G1 X82.680 Y136.971 E38.06931
G1 X80.895 Y137.172 E38.14411
G1 X80.072 Y137.196 E38.17839
G1 X79.393 Y137.213 E38.20667
G1 X78.786 Y137.183 E38.23198
G1 X77.906 Y137.104 E38.26877
G1 X76.599 Y136.980 E38.32343
G1 X76.048 Y136.872 E38.34681
G1 X75.186 Y136.611 E38.38431
G1 X74.180 Y136.251 E38.42880
G1 X73.638 Y136.103 E38.45219
G1 X73.166 Y135.941 E38.47297
G1 X71.903 Y135.568 E38.52781
G1 X71.275 Y135.354 E38.55543
G1 X70.763 Y135.177 E38.57799
G1 X70.591 Y135.110 E38.58567
G1 X69.768 Y134.691 E38.62413
G1 X69.291 Y134.457 E38.64625
G1 X68.584 Y133.996 E38.68139
G1 X67.823 Y133.346 E38.72306
G1 X67.276 Y132.941 E38.75140
G1 X66.948 Y132.692 E38.76855
G1 X66.108 Y131.595 E38.82608
G1 X65.797 Y131.018 E38.85337
G1 X65.718 Y130.701 E38.86698
G1 X65.638 Y129.865 E38.90194
G1 X65.502 Y129.338 E38.92461
G1 X65.452 Y129.110 E38.93433
G1 X65.470 Y128.785 E38.94788
G1 X65.560 Y128.542 E38.95867
G1 X65.740 Y127.917 E38.98575
G1 X65.868 Y127.340 E39.01036
G1 X65.891 Y127.125 E39.01936
G1 X65.849 Y126.380 E39.05043
G1 X65.836 Y126.209 E39.05757
G1 X65.544 Y125.442 E39.09175
G1 X65.364 Y124.974 E39.11262
G1 X65.100 Y124.027 E39.15356
G1 X64.950 Y123.551 E39.17434
G1 X64.941 Y123.280 E39.18563
G1 X65.101 Y122.583 E39.21541
G1 X65.126 Y122.440 E39.22145
G1 X65.078 Y121.445 E39.26293
G1 X64.714 Y120.456 E39.30681
G1 X64.591 Y119.469 E39.34822
G1 X64.429 Y118.890 E39.37326
G1 X63.891 Y118.003 E39.41645
G1 X63.622 Y117.502 E39.44013
G1 X63.385 Y116.984 E39.46385
G1 X63.128 Y116.334 E39.49295
G1 X62.715 Y115.139 E39.54560
G1 X62.455 Y114.319 E39.58142
G1 X62.187 Y113.270 E39.62650
G1 X62.088 Y112.710 E39.65018
G1 X62.009 Y112.136 E39.67430
G1 X61.959 Y111.588 E39.69721
G1 X61.931 Y111.023 E39.72077
G1 X61.934 Y110.448 E39.74471
G1 X62.087 Y109.169 E39.79834
G1 X62.239 Y108.392 E39.83131
G1 X62.431 Y107.781 E39.85798
G1 X62.624 Y107.314 E39.87902
G1 X63.176 Y106.394 E39.92369
G1 X63.772 Y105.558 E39.96644
G1 X64.126 Y104.986 E39.99445
G1 X64.367 Y104.574 E40.01432
G1 X64.401 Y104.460 E40.01928
G1 X64.622 Y103.998 E40.04060
G1 X64.744 Y103.441 E40.06434
G1 X64.764 Y102.916 E40.08622
G1 X64.682 Y102.367 E40.10933
G1 X64.444 Y101.566 E40.14413
G1 X64.117 Y100.668 E40.18392
G1 X63.927 Y100.139 E40.20732
G1 X63.524 Y98.730 E40.26834
G1 X63.093 Y97.361 E40.32810
G1 X62.749 Y96.188 E40.37900
G1 X62.524 Y95.116 E40.42461
G1 X62.270 Y93.585 E40.48923
G1 X62.057 Y92.262 E40.54503
G1 X61.939 Y91.521 E40.57627
G1 X61.815 Y90.893 E40.60292
G1 X61.642 Y90.248 E40.63073
G1 X61.522 Y89.741 E40.65242
G1 X61.217 Y88.714 E40.69703
G1 X60.619 Y86.498 E40.79260
G1 X60.258 Y85.065 E40.85413
G1 X60.057 Y84.064 E40.89664
G1 X59.923 Y83.030 E40.94006
G1 X59.810 Y81.562 E41.00136
G1 X59.798 Y81.058 E41.02235
G1 X59.788 Y80.670 E41.03851
G1 X59.795 Y80.027 E41.06529
G1 X59.761 Y79.006 E41.10782
G1 X59.563 Y77.506 E41.17082
G1 X59.483 Y76.745 E41.20268
G1 X59.444 Y76.373 E41.21826
G1 X59.399 Y75.640 E41.24884
G1 X59.364 Y74.979 E41.27640
G1 X59.267 Y73.506 E41.33786
G1 X59.167 Y72.170 E41.39365
G1 X59.144 Y71.632 E41.41607
G1 X59.141 Y71.296 E41.43006
G1 X59.181 Y70.298 E41.47165
G1 X59.270 Y69.314 E41.51279
G1 X59.342 Y68.378 E41.55187
G1 X59.419 Y67.799 E41.57620
G1 X59.494 Y67.181 E41.60212
G1 X59.629 Y66.344 E41.63742
G1 X59.745 Y65.610 E41.66836
G1 X59.972 Y64.061 E41.73355
G1 X60.079 Y63.566 E41.75463
G1 X60.274 Y62.708 E41.79127
G1 X60.457 Y62.027 E41.82063
G1 X60.614 Y61.508 E41.84321
G1 X61.106 Y59.926 E41.91219
G1 X61.386 Y58.968 E41.95375
G1 X61.561 Y58.322 E41.98162
G1 X61.685 Y57.746 E42.00615
G1 X62.033 Y55.998 E42.08036
G1 X62.276 Y54.896 E42.12735
G1 X62.473 Y53.810 E42.17330
G1 X62.796 Y51.229 E42.28161
G1 X62.982 Y49.709 E42.34537
G1 X63.069 Y49.104 E42.37082
G1 X63.234 Y48.064 E42.41467
G1 X63.354 Y47.371 E42.44395
G1 X63.457 Y46.802 E42.46803
G1 X63.568 Y46.297 E42.48956
G0 F10500 X62.959 Y46.158
;TYPE:WALL-OUTER
G1 F900 X63.154 Y45.413 E42.52162
G1 X63.349 Y44.866 E42.54580
G1 X63.759 Y43.990 E42.58608
G1 X63.961 Y43.617 E42.60374
G1 X64.369 Y42.939 E42.63669
G1 X64.784 Y42.320 E42.66772
G1 X65.509 Y41.320 E42.71915
G1 X66.306 Y40.163 E42.77764
G1 X66.773 Y39.541 E42.81003
G1 X67.159 Y39.056 E42.83584
G1 X67.698 Y38.454 E42.86949
G1 X68.181 Y37.946 E42.89867
G1 X68.590 Y37.523 E42.92317
G1 X69.410 Y36.691 E42.97181
G1 X70.222 Y35.929 E43.01818
G1 X70.450 Y35.708 E43.03140
G1 X70.811 Y35.431 E43.05035
G1 X71.220 Y35.067 E43.07314
G1 X71.610 Y34.744 E43.09423
G1 X72.182 Y34.336 E43.12348
G1 X73.586 Y33.402 E43.19370
G1 X74.114 Y33.132 E43.21839
G1 X74.770 Y32.781 E43.24937
G1 X75.758 Y32.237 E43.29633
G1 X76.319 Y31.985 E43.32194
G1 X77.040 Y31.714 E43.35401
G1 X78.329 Y31.247 E43.41109
G1 X79.615 Y30.997 E43.46564
G1 X80.356 Y30.886 E43.49684
G1 X81.206 Y30.739 E43.53276
G1 X82.233 Y30.554 E43.57621
G1 X83.177 Y30.303 E43.61688
G1 X83.774 Y30.201 E43.64210
G1 X84.663 Y30.098 E43.67936
G1 X84.744 Y30.094 E43.68274
G1 X85.317 Y29.982 E43.70705
G1 X86.001 Y29.920 E43.73565
G1 X86.538 Y29.838 E43.75826
G1 X87.895 Y29.445 E43.81709
G1 X89.143 Y29.000 E43.87226
G1 X89.311 Y28.927 E43.87989
G1 X90.435 Y28.251 E43.93450
G1 X90.656 Y28.132 E43.94495
G1 X91.311 Y27.828 E43.97502
G1 X92.101 Y27.541 E44.01001
G1 X92.824 Y27.323 E44.04146
G1 X93.867 Y27.102 E44.08585
G1 X94.051 Y27.056 E44.09375
G1 X94.500 Y27.011 E44.11254
G1 X95.249 Y26.825 E44.14467
G1 X95.648 Y26.717 E44.16188
G1 X96.487 Y26.564 E44.19739
G1 X96.750 Y26.491 E44.20876
G1 X97.228 Y26.300 E44.23019
G1 X98.087 Y26.108 E44.26684
G1 X98.689 Y25.969 E44.29256
G1 X99.045 Y25.905 E44.30763
G1 X99.572 Y25.755 E44.33044
G1 X100.716 Y25.494 E44.37930
G1 X101.225 Y25.337 E44.40148
G1 X101.915 Y24.983 E44.43377
G1 X102.432 Y24.670 E44.45893
G1 X102.766 Y24.448 E44.47563
G1 X103.214 Y24.041 E44.50083
G1 X103.554 Y23.587 E44.52445
G1 X104.182 Y22.655 E44.57124
G1 X104.602 Y22.135 E44.59908
G1 X105.258 Y21.426 E44.63930
G1 X105.681 Y20.997 E44.66438
G1 X106.930 Y19.953 E44.73216
G1 X107.064 Y19.844 E44.73935
G1 X107.513 Y19.292 E44.76898
G1 X107.808 Y18.758 E44.79438
G1 X108.305 Y17.870 E44.83676
G1 X108.575 Y17.200 E44.86683
G1 X108.655 Y17.018 E44.87511
G1 X108.861 Y16.191 E44.91060
G1 X108.954 Y15.345 E44.94604
G1 X108.969 Y15.200 E44.95211
G1 X109.170 Y14.426 E44.98540
G1 X109.387 Y13.746 E45.01512
G1 X109.932 Y12.835 E45.05932
G1 X110.282 Y12.354 E45.08409
G1 X110.513 Y11.981 E45.10236
G1 X110.807 Y11.672 E45.12012
G1 X111.125 Y11.556 E45.13422
G1 X111.227 Y11.549 E45.13847
G1 X111.315 Y11.518 E45.14236
G1 X111.370 Y11.511 E45.14467
G1 X111.595 Y11.516 E45.15404
G1 X112.111 Y11.480 E45.17557
G1 X112.317 Y11.476 E45.18415
G1 X112.621 Y11.390 E45.19731
G1 X112.810 Y11.299 E45.20604
G1 X113.148 Y11.007 E45.22464
G1 X113.515 Y10.506 E45.25050
G1 X113.663 Y10.228 E45.26361
G1 X113.916 Y9.430 E45.29847
G1 X113.981 Y8.578 E45.33405
G1 X114.109 Y8.379 E45.34390
G1 X114.898 Y7.835 E45.38380
G1 X115.154 Y7.684 E45.39618
G1 X115.333 Y7.633 E45.40393
G1 X115.847 Y7.027 E45.43702
G1 X116.528 Y6.481 E45.47336
G1 X116.623 Y6.425 E45.47795
G1 X117.265 Y6.155 E45.50695
G1 X118.249 Y5.909 E45.54918
G1 X119.223 Y5.826 E45.58989
G1 X119.734 Y5.890 E45.61133
G1 X119.902 Y5.962 E45.61894
G1 X120.237 Y6.229 E45.63678
G1 X120.348 Y6.362 E45.64399
G1 X120.573 Y6.693 E45.66066
G1 X120.892 Y7.315 E45.68976
G1 X121.076 Y7.875 E45.71430
G1 X121.152 Y8.119 E45.72495
G1 X121.222 Y8.488 E45.74058
G1 X121.266 Y8.636 E45.74701
G1 X121.345 Y9.047 E45.76444
G1 X121.765 Y9.691 E45.79645
G1 X122.126 Y10.545 E45.83506
G1 X122.526 Y11.251 E45.86885
G1 X122.763 Y11.696 E45.88984
G1 X123.121 Y12.499 E45.92645
G1 X123.419 Y13.193 E45.95789
G1 X123.636 Y13.665 E45.97952
G1 X124.254 Y14.952 E46.03897
G1 X124.938 Y16.503 E46.10955
G1 X124.986 Y16.608 E46.11436
G1 X125.271 Y17.076 E46.13717
G1 X125.657 Y17.559 E46.16292
G1 X125.831 Y17.730 E46.17308
G1 X125.932 Y17.792 E46.17801
G1 X126.147 Y17.973 E46.18971
G1 X126.281 Y18.060 E46.19637
G1 X126.648 Y18.193 E46.21262
G1 X128.374 Y18.632 E46.28678
G1 X128.786 Y18.791 E46.30516
G1 X129.313 Y19.093 E46.33045
G1 X130.062 Y19.611 E46.36837
G1 X130.415 Y19.884 E46.38695
G1 X130.463 Y19.928 E46.38966
G1 X130.583 Y20.072 E46.39747
G1 X130.854 Y20.326 E46.41294
G1 X131.459 Y21.008 E46.45090
G1 X132.098 Y21.896 E46.49645
G1 X132.344 Y22.229 E46.51369
G1 X132.846 Y23.014 E46.55248
G1 X133.812 Y24.294 E46.61926
G1 X134.419 Y25.099 E46.66123
G1 X134.732 Y25.675 E46.68853
G1 X135.034 Y26.335 E46.71875
G1 X135.416 Y27.033 E46.75188
G1 X135.843 Y27.709 E46.78517
G1 X136.191 Y28.356 E46.81576
G1 X136.468 Y29.133 E46.85011
G1 X136.499 Y29.216 E46.85380
G1 X136.681 Y29.866 E46.88191
G1 X136.846 Y30.213 E46.89790
G1 X137.052 Y30.760 E46.92224
G1 X137.231 Y31.343 E46.94764
G1 X137.341 Y31.685 E46.96259
G1 X137.409 Y32.345 E46.99022
G1 X137.441 Y33.876 E47.05398
G1 X137.443 Y33.927 E47.05611
G1 X137.441 Y34.720 E47.08913
G1 X137.368 Y35.907 E47.13864
G1 X137.289 Y36.485 E47.16293
G1 X137.237 Y37.039 E47.18610
G1 X137.133 Y38.050 E47.22842
G1 X136.997 Y38.803 E47.26028
G1 X136.711 Y39.823 E47.30439
G1 X136.534 Y40.525 E47.33454
G1 X136.264 Y41.540 E47.37827
G1 X135.758 Y43.088 E47.44608
G1 X135.476 Y43.691 E47.47380
G1 X135.113 Y44.345 E47.50494
G1 X134.682 Y45.011 E47.53797
G1 X134.410 Y45.390 E47.55740
G1 X133.708 Y46.226 E47.60285
G1 X133.184 Y46.806 E47.63540
G1 X132.369 Y47.654 E47.68437
G1 X131.828 Y48.189 E47.71605
G1 X131.267 Y48.700 E47.74765
G1 X131.000 Y48.937 E47.76251
G1 X130.890 Y49.039 E47.76876
G1 X130.061 Y49.727 E47.81362
G1 X129.356 Y50.267 E47.85059
G1 X128.374 Y51.035 E47.90250
G1 X127.839 Y51.437 E47.93036
G1 X126.373 Y52.395 E48.00328
G1 X124.758 Y53.339 E48.08117
G1 X124.156 Y53.710 E48.11062
G1 X122.803 Y54.585 E48.17771
G1 X122.438 Y54.831 E48.19604
G1 X121.876 Y55.159 E48.22313
G1 X121.087 Y55.570 E48.26017
G1 X120.278 Y55.934 E48.29711
G1 X118.803 Y56.552 E48.36370
G1 X118.267 Y56.770 E48.38779
G1 X117.719 Y57.107 E48.41458
G1 X116.992 Y57.687 E48.45330
G1 X116.918 Y57.743 E48.45717
G1 X116.881 Y57.781 E48.45938
G1 X115.741 Y58.656 E48.51921
G1 X114.555 Y59.515 E48.58019
G1 X113.936 Y59.932 E48.61126
G1 X112.813 Y60.600 E48.66567
G1 X112.362 Y60.910 E48.68846
G1 X112.124 Y61.086 E48.70078
G1 X111.438 Y61.718 E48.73962
G1 X111.099 Y62.094 E48.76070
G1 X110.917 Y62.321 E48.77281
G1 X110.751 Y62.581 E48.78566
G1 X110.642 Y62.727 E48.79325
G1 X110.393 Y63.187 E48.81502
G1 X110.159 Y63.920 E48.84706
G1 X110.079 Y64.239 E48.86076
G1 X109.918 Y65.353 E48.90762
G1 X109.776 Y66.850 E48.97024
G1 X109.562 Y68.226 E49.02822
G1 X109.380 Y68.940 E49.05890
G1 X109.221 Y69.418 E49.07987
G1 X108.964 Y70.061 E49.10871
G1 X108.719 Y70.551 E49.13152
G1 X108.443 Y71.082 E49.15643
G1 X107.942 Y71.884 E49.19581
G1 X107.420 Y72.767 E49.23852
G1 X107.193 Y73.260 E49.26112
G1 X107.119 Y73.474 E49.27055
G1 X106.865 Y74.068 E49.29745
G1 X106.597 Y74.689 E49.32561
G1 X106.560 Y74.868 E49.33322
G1 X106.388 Y75.353 E49.35464
G1 X106.093 Y75.900 E49.38052
G1 X105.913 Y76.419 E49.40339
G1 X105.866 Y76.505 E49.40748
G1 X105.631 Y77.220 E49.43881
G1 X105.572 Y77.341 E49.44442
G1 X105.477 Y77.706 E49.46012
G1 X105.473 Y77.742 E49.46163
G1 X105.340 Y78.242 E49.48317
G1 X105.233 Y78.882 E49.51019
G1 X105.178 Y79.155 E49.52179
G1 X105.127 Y79.676 E49.54358
G1 X105.092 Y80.085 E49.56068
G1 X105.086 Y81.217 E49.60781
G1 X105.089 Y81.286 E49.61069
G1 X105.088 Y82.014 E49.64100
G1 X105.133 Y82.786 E49.67320
G1 X105.132 Y82.829 E49.67499
G1 X105.192 Y83.714 E49.71192
G1 X105.245 Y84.074 E49.72708
G1 X105.245 Y84.171 E49.73111
G1 X105.369 Y85.264 E49.77692
G1 X105.409 Y86.054 E49.80985
G1 X105.440 Y87.025 E49.85030
G1 X105.297 Y88.695 E49.92009
G1 X105.234 Y89.264 E49.94393
G1 X105.236 Y89.374 E49.94851
G1 X105.171 Y89.774 E49.96538
G1 X105.144 Y90.286 E49.98673
G1 X105.093 Y90.717 E50.00480
G1 X105.106 Y91.403 E50.03337
G1 X105.071 Y92.251 E50.06871
G1 X105.063 Y92.314 E50.07136
G1 X105.141 Y93.597 E50.12488
G1 X105.239 Y94.912 E50.17978
G1 X105.258 Y95.473 E50.20315
G1 X105.248 Y95.685 E50.21199
G1 X105.284 Y95.908 E50.22140
G1 X105.331 Y97.097 E50.27094
G1 X105.389 Y97.899 E50.30442
G1 X105.396 Y98.128 E50.31396
G1 X105.364 Y98.406 E50.32562
G1 X105.414 Y99.316 E50.36356
G1 X105.378 Y99.466 E50.36999
G1 X105.375 Y99.633 E50.37694
G1 X105.437 Y100.708 E50.42178
G1 X105.408 Y101.605 E50.45914
G1 X105.382 Y102.917 E50.51378
G1 X105.361 Y103.340 E50.53142
G1 X105.376 Y104.080 E50.56224
G1 X105.358 Y104.600 E50.58390
G1 X105.229 Y105.822 E50.63507
G1 X105.144 Y106.486 E50.66294
G1 X105.043 Y107.159 E50.69128
G1 X104.549 Y109.164 E50.77726
G1 X104.510 Y109.310 E50.78355
G1 X104.442 Y109.850 E50.80621
G1 X104.413 Y110.101 E50.81673
G1 X104.433 Y110.505 E50.83357
G1 X104.432 Y110.546 E50.83528
G1 X104.436 Y110.630 E50.83878
G1 X104.631 Y111.141 E50.86156
G1 X104.934 Y111.613 E50.88491
G1 X105.630 Y112.361 E50.92745
G1 X105.849 Y112.539 E50.93920
G1 X106.329 Y112.796 E50.96187
G1 X106.379 Y112.826 E50.96430
G1 X107.083 Y113.052 E50.99509
G1 X107.770 Y113.184 E51.02422
G1 X108.629 Y113.287 E51.06024
G1 X109.621 Y113.347 E51.10162
G1 X110.859 Y113.414 E51.15324
G1 X111.548 Y113.472 E51.18203
G1 X112.575 Y113.527 E51.22486
G1 X113.208 Y113.623 E51.25152
G1 X113.529 Y113.653 E51.26494
G1 X114.582 Y113.872 E51.30972
G1 X115.145 Y114.031 E51.33408
G1 X115.659 Y114.191 E51.35650
G1 X116.665 Y114.577 E51.40136
G1 X117.134 Y114.802 E51.42302
G1 X117.668 Y115.073 E51.44796
G1 X118.229 Y115.418 E51.47538
G1 X118.919 Y115.896 E51.51033
G1 X119.461 Y116.326 E51.53914
G1 X120.202 Y117.045 E51.58213
G1 X120.562 Y117.422 E51.60383
G1 X121.152 Y118.193 E51.64426
G1 X121.626 Y118.822 E51.67705
G1 X122.074 Y119.487 E51.71044
G1 X122.331 Y119.880 E51.72999
G1 X123.099 Y121.238 E51.79495
G1 X123.502 Y122.062 E51.83314
G1 X123.971 Y123.174 E51.88339
G1 X124.495 Y124.777 E51.95361
G1 X124.551 Y124.957 E51.96146
G1 X124.662 Y125.454 E51.98267
G1 X124.882 Y126.540 E52.02880
G1 X124.995 Y127.516 E52.06972
G1 X125.056 Y128.445 E52.10848
G1 X125.081 Y128.717 E52.11985
G1 X125.090 Y129.437 E52.14983
G1 X125.102 Y130.079 E52.17657
G1 X125.064 Y130.625 E52.19936
G1 X124.970 Y131.388 E52.23137
G1 X124.908 Y132.044 E52.25881
G1 X124.827 Y132.653 E52.28439
G1 X124.689 Y133.297 E52.31181
G1 X124.586 Y133.818 E52.33392
G1 X124.588 Y133.850 E52.33526
G1 X124.217 Y135.070 E52.38835
G1 X123.360 Y137.490 E52.49525
G1 X123.173 Y137.990 E52.51748
G1 X122.955 Y138.364 E52.53550
G1 X122.649 Y139.090 E52.56831
G1 X122.516 Y139.226 E52.57623
G1 X122.134 Y139.694 E52.60138
G1 X122.012 Y139.816 E52.60857
G1 X121.860 Y140.011 E52.61886
G1 X121.822 Y140.038 E52.62080
G1 X121.524 Y140.359 E52.63904
G1 X121.470 Y140.395 E52.64174
G1 X120.854 Y141.113 E52.68113
G1 X119.735 Y142.571 E52.75766
G1 X119.041 Y143.387 E52.80226
G1 X118.739 Y143.759 E52.82221
G1 X117.960 Y144.496 E52.86686
G1 X117.443 Y144.923 E52.89478
G1 X117.038 Y145.189 E52.91496
G1 X116.964 Y145.247 E52.91887
G1 X116.333 Y145.642 E52.94987
G1 X115.070 Y146.293 E53.00903
G1 X114.853 Y146.391 E53.01895
G1 X114.047 Y146.681 E53.05462
G1 X112.952 Y147.218 E53.10540
G1 X112.143 Y147.595 E53.14256
G1 X111.697 Y147.832 E53.16359
G1 X110.988 Y148.260 E53.19807
G1 X110.455 Y148.532 E53.22299
G1 X109.893 Y148.789 E53.24872
G1 X109.165 Y149.032 E53.28068
G1 X108.570 Y149.217 E53.30662
G1 X107.876 Y149.358 E53.33611
G1 X107.379 Y149.486 E53.35748
G1 X106.814 Y149.682 E53.38238
G1 X106.668 Y149.754 E53.38916
G1 X106.149 Y149.928 E53.41195
G1 X105.715 Y150.014 E53.43037
G1 X105.399 Y150.104 E53.44405
G1 X104.556 Y150.174 E53.47927
G1 X103.915 Y150.162 E53.50597
G1 X103.417 Y150.108 E53.52682
G1 X103.301 Y150.089 E53.53172
G1 X103.169 Y150.036 E53.53764
G1 X102.274 Y149.914 E53.57525
G1 X101.450 Y149.831 E53.60974
G1 X100.614 Y149.701 E53.64496
G1 X99.644 Y149.486 E53.68633
G1 X99.616 Y149.478 E53.68754
G1 X99.352 Y149.365 E53.69950
G1 X98.850 Y149.015 E53.72498
G1 X98.725 Y148.939 E53.73107
G1 X98.665 Y148.887 E53.73438
G1 X98.625 Y148.822 E53.73756
G1 X98.193 Y148.423 E53.76204
G1 X97.691 Y148.109 E53.78670
G1 X97.177 Y147.717 E53.81361
G1 X97.088 Y147.598 E53.81980
G1 X96.722 Y147.321 E53.83891
G1 X96.492 Y147.185 E53.85004
G1 X96.151 Y146.905 E53.86841
G1 X95.692 Y146.599 E53.89138
G1 X95.520 Y146.431 E53.90139
G1 X95.363 Y146.333 E53.90910
G1 X94.884 Y145.895 E53.93612
G1 X93.657 Y144.908 E54.00169
G1 X93.378 Y144.701 E54.01616
G1 X93.259 Y144.574 E54.02340
G1 X92.753 Y144.114 E54.05188
G1 X92.347 Y143.665 E54.07708
G1 X91.913 Y143.070 E54.10775
G1 X91.676 Y142.647 E54.12794
G1 X91.449 Y142.143 E54.15095
G1 X91.329 Y141.808 E54.16577
G1 X90.998 Y141.369 E54.18866
G1 X90.349 Y140.824 E54.22395
G1 X89.578 Y140.316 E54.26239
G1 X88.869 Y139.983 E54.29501
G1 X87.636 Y139.399 E54.35182
G1 X87.466 Y139.325 E54.35954
G1 X87.065 Y139.039 E54.38004
G1 X86.954 Y138.991 E54.38508
G1 X86.519 Y138.631 E54.40859
G1 X86.162 Y138.344 E54.42766
G1 X85.684 Y138.034 E54.45138
G1 X85.567 Y137.966 E54.45702
G1 X84.967 Y137.741 E54.48370
G1 X84.310 Y137.605 E54.51164
G1 X83.721 Y137.563 E54.53622
G1 X82.725 Y137.595 E54.57772
G1 X80.959 Y137.794 E54.65171
G1 X80.081 Y137.821 E54.68829
G1 X79.391 Y137.839 E54.71703
G1 X78.749 Y137.807 E54.74380
G1 X77.847 Y137.726 E54.78150
G1 X76.509 Y137.599 E54.83747
G1 X75.898 Y137.479 E54.86339
G1 X75.006 Y137.209 E54.90220
G1 X74.663 Y137.107 E54.91710
G1 X73.985 Y136.846 E54.94735
G1 X73.453 Y136.701 E54.97031
G1 X72.976 Y136.537 E54.99131
G1 X71.722 Y136.167 E55.04575
G1 X71.075 Y135.946 E55.07422
G1 X70.539 Y135.760 E55.09784
G1 X70.334 Y135.681 E55.10699
G1 X69.489 Y135.250 E55.14648
G1 X68.952 Y134.987 E55.17138
G1 X68.206 Y134.495 E55.20859
G1 X67.433 Y133.836 E55.25089
G1 X66.904 Y133.443 E55.27833
G1 X66.504 Y133.140 E55.29922
G1 X65.581 Y131.934 E55.36245
G1 X65.201 Y131.229 E55.39580
G1 X65.100 Y130.807 E55.41387
G1 X65.022 Y129.979 E55.44850
G1 X64.888 Y129.461 E55.47078
G1 X64.823 Y129.161 E55.48356
G1 X64.850 Y128.659 E55.50449
G1 X65.134 Y127.762 E55.54367
G1 X65.250 Y127.240 E55.56593
G1 X65.264 Y127.110 E55.57138
G1 X65.225 Y126.421 E55.60011
G1 X65.220 Y126.347 E55.60320
G1 X64.960 Y125.665 E55.63359
G1 X64.773 Y125.180 E55.65523
G1 X64.500 Y124.204 E55.69743
G1 X64.329 Y123.659 E55.72121
G1 X64.313 Y123.219 E55.73955
G1 X64.488 Y122.459 E55.77202
G1 X64.498 Y122.400 E55.77451
G1 X64.458 Y121.571 E55.80907
G1 X64.100 Y120.595 E55.85236
G1 X63.977 Y119.596 E55.89427
G1 X63.850 Y119.141 E55.91394
G1 X63.340 Y118.300 E55.95489
G1 X63.069 Y117.795 E55.97875
G1 X62.811 Y117.231 E56.00458
G1 X62.536 Y116.535 E56.03574
G1 X62.124 Y115.343 E56.08825
G1 X61.852 Y114.487 E56.12565
G1 X61.575 Y113.401 E56.17232
G1 X61.472 Y112.819 E56.19693
G1 X61.389 Y112.209 E56.22256
G1 X61.335 Y111.619 E56.24723
G1 X61.306 Y111.031 E56.27174
G1 X61.309 Y110.415 E56.29739
G1 X61.471 Y109.056 E56.35438
G1 X61.630 Y108.247 E56.38871
G1 X61.847 Y107.555 E56.41890
G1 X62.058 Y107.046 E56.44185
G1 X62.317 Y106.581 E56.46401
G1 X62.651 Y106.054 E56.48999
G1 X63.251 Y105.212 E56.53304
G1 X63.590 Y104.664 E56.55987
G1 X63.789 Y104.324 E56.57627
G1 X63.817 Y104.230 E56.58035
G1 X64.027 Y103.793 E56.60054
G1 X64.122 Y103.361 E56.61896
G1 X64.137 Y102.951 E56.63604
G1 X64.070 Y102.502 E56.65495
G1 X63.850 Y101.762 E56.68709
G1 X63.528 Y100.878 E56.72626
G1 X63.333 Y100.334 E56.75033
G1 X62.926 Y98.910 E56.81199
G1 X62.497 Y97.549 E56.87141
G1 X62.141 Y96.337 E56.92401
G1 X61.912 Y95.241 E56.97063
G1 X61.654 Y93.688 E57.03618
G1 X61.323 Y91.630 E57.12297
G1 X61.206 Y91.034 E57.14826
G1 X61.035 Y90.400 E57.17560
G1 X60.918 Y89.902 E57.19690
G1 X60.612 Y88.870 E57.24172
G1 X60.016 Y86.667 E57.33675
G1 X59.647 Y85.199 E57.39977
G1 X59.439 Y84.161 E57.44385
G1 X59.302 Y83.103 E57.48827
G1 X59.185 Y81.587 E57.55159
G1 X59.163 Y80.697 E57.58865
G1 X59.170 Y80.034 E57.61626
G1 X59.137 Y79.057 E57.65697
G1 X58.943 Y77.588 E57.71866
G1 X58.821 Y76.424 E57.76739
G1 X58.775 Y75.673 E57.79872
G1 X58.740 Y75.016 E57.82612
G1 X58.643 Y73.550 E57.88729
G1 X58.543 Y72.205 E57.94345
G1 X58.519 Y71.637 E57.96712
G1 X58.516 Y71.308 E57.98082
G1 X58.557 Y70.264 E58.02433
G1 X58.647 Y69.262 E58.06621
G1 X58.722 Y68.293 E58.10668
G1 X58.799 Y67.720 E58.13076
G1 X58.879 Y67.069 E58.15807
G1 X59.012 Y66.245 E58.19282
G1 X59.127 Y65.516 E58.22355
G1 X59.358 Y63.945 E58.28967
G1 X59.469 Y63.427 E58.31172
G1 X59.661 Y62.581 E58.34784
G1 X59.859 Y61.846 E58.37954
G1 X60.017 Y61.323 E58.40229
G1 X60.508 Y59.745 E58.47110
G1 X60.784 Y58.798 E58.51217
G1 X60.953 Y58.174 E58.53909
G1 X61.073 Y57.618 E58.56277
G1 X61.423 Y55.863 E58.63729
G1 X61.663 Y54.773 E58.68376
G1 X61.861 Y53.678 E58.73009
G1 X61.882 Y53.592 E58.73378
G1 X62.361 Y49.640 E58.89954
G1 X62.452 Y49.006 E58.92621
G1 X62.618 Y47.957 E58.97043
G1 X62.738 Y47.260 E58.99988
G1 X62.840 Y46.702 E59.02349
G1 X62.959 Y46.158 E59.04668
G0 F10500 X63.744 Y46.509
;TYPE:SKIN
G1 F900 X104.566 Y87.331 E61.45048
G0 F10500 X104.497 Y88.146
G1 F900 X63.597 Y47.246 E63.85888
G0 F10500 X63.465 Y47.998
G1 F900 X104.419 Y88.951 E66.27042
G0 F10500 X104.327 Y89.743
G1 F900 X63.343 Y48.759 E68.68376
G0 F10500 X63.228 Y49.528
G1 F900 X104.260 Y90.561 E71.09996
G0 F10500 X104.259 Y91.443
G1 F900 X63.126 Y50.311 E73.52205
G0 F10500 X63.029 Y51.097
G1 F900 X104.214 Y92.283 E75.94725
G0 F10500 X104.272 Y93.224
G1 F900 X62.931 Y51.883 E78.38161
G0 F10500 X62.834 Y52.670
G1 F900 X104.337 Y94.173 E80.82552
G0 F10500 X104.401 Y95.121
G1 F900 X62.737 Y53.457 E83.27890
G0 F10500 X62.619 Y54.223
G1 F900 X104.445 Y96.049 E85.74182
G0 F10500 X104.480 Y96.968
G1 F900 X62.482 Y54.970 E88.21487
G0 F10500 X62.322 Y55.694
G1 F900 X104.543 Y97.915 E90.70105
G0 F10500 X104.539 Y98.794
G1 F900 X62.170 Y56.425 E93.19595
G0 F10500 X62.023 Y57.162
G1 F900 X104.531 Y99.670 E95.69903
G0 F10500 X104.576 Y86.457
G1 F900 X63.923 Y45.804 E98.09288
G0 F10500 X64.148 Y45.145
G1 F900 X104.536 Y85.533 E100.47113
G0 F10500 X104.438 Y84.551
G1 F900 X64.430 Y44.543 E102.82700
G0 F10500 X64.744 Y43.973
G1 F900 X104.335 Y83.565 E105.15834
G0 F10500 X104.278 Y82.624
G1 F900 X65.068 Y43.414 E107.46722
G0 F10500 X65.421 Y42.883
G1 F900 X104.243 Y81.705 E109.75325
G0 F10500 X104.243 Y80.821
G1 F900 X65.790 Y42.368 E112.01755
G0 F10500 X66.161 Y41.855
G1 F900 X104.256 Y79.950 E114.26078
G0 F10500 X104.331 Y79.141
G1 F900 X66.523 Y41.333 E116.48710
G0 F10500 X66.884 Y40.810
G1 F900 X104.459 Y78.385 E118.69970
G0 F10500 X104.620 Y77.662
G1 F900 X67.257 Y40.299 E120.89982
G0 F10500 X61.874 Y57.897
G1 F900 X104.586 Y100.609 E123.41491
G0 F10500 X104.566 Y101.474
G1 F900 X61.707 Y58.614 E125.93869
G0 F10500 X61.511 Y59.302
G1 F900 X104.549 Y102.340 E128.47298
G0 F10500 X104.523 Y103.197
G1 F900 X61.306 Y59.981 E131.01779
G0 F10500 X61.101 Y60.659
G1 F900 X104.530 Y104.089 E133.57513
G0 F10500 X104.475 Y104.918
G1 F900 X60.895 Y61.337 E136.14137
G0 F10500 X60.689 Y62.016
G1 F900 X104.390 Y105.717 E138.71470
G0 F10500 X104.287 Y106.498
G1 F900 X60.500 Y62.710 E141.29312
G0 F10500 X60.333 Y63.428
G1 F900 X104.151 Y107.246 E143.87334
G0 F10500 X103.977 Y107.955
G1 F900 X60.178 Y64.156 E146.45245
G0 F10500 X60.065 Y64.927
G1 F900 X103.802 Y108.664 E149.02790
G0 F10500 X103.649 Y109.395
G1 F900 X59.951 Y65.697 E151.60105
G0 F10500 X59.829 Y66.459
G1 F900 X103.573 Y110.203 E154.17692
G0 F10500 X103.790 Y111.304
G1 F900 X59.708 Y67.222 E156.77268
G0 F10500 X59.611 Y68.008
G1 F900 X124.008 Y132.406 E160.56473
G0 F10500 X123.859 Y133.141
G1 F900 X59.527 Y68.809 E164.35291
G0 F10500 X59.461 Y69.626
G1 F900 X123.701 Y133.866 E168.13568
G0 F10500 X123.494 Y134.544
G1 F900 X59.394 Y70.443 E171.91024
G0 F10500 X59.360 Y71.293
G1 F900 X123.272 Y135.205 E175.67369
G0 F10500 X123.041 Y135.858
G1 F900 X59.389 Y72.206 E179.42184
G0 F10500 X59.455 Y73.156
G1 F900 X122.810 Y136.511 E183.15249
G0 F10500 X122.579 Y137.164
G1 F900 X59.522 Y74.106 E186.86563
G0 F10500 X59.587 Y75.055
G1 F900 X122.315 Y137.783 E190.55937
G0 F10500 X122.031 Y138.383
G1 F900 X59.638 Y75.991 E194.23335
G0 F10500 X59.725 Y76.962
G1 F900 X121.682 Y138.918 E197.88165
G0 F10500 X121.272 Y139.392
G1 F900 X59.844 Y77.964 E201.49884
G0 F10500 X59.978 Y78.983
G1 F900 X120.835 Y139.839 E205.08237
G0 F10500 X124.101 Y131.615
G1 F900 X106.114 Y113.627 E206.14156
G0 F10500 X107.328 Y113.958
G1 F900 X124.189 Y130.819 E207.13442
G0 F10500 X124.256 Y130.002
G1 F900 X108.358 Y114.104 E208.07057
G0 F10500 X109.308 Y114.170
G1 F900 X124.242 Y129.104 E208.94996
G0 F10500 X124.193 Y128.171
G1 F900 X110.246 Y114.224 E209.77123
G0 F10500 X111.194 Y114.288
G1 F900 X124.109 Y127.204 E210.53176
G0 F10500 X123.943 Y126.154
G1 F900 X112.137 Y114.347 E211.22698
G0 F10500 X113.136 Y114.462
G1 F900 X123.684 Y125.010 E211.84810
G0 F10500 X123.254 Y123.697
G1 F900 X114.214 Y114.656 E212.38045
G0 F10500 X115.459 Y115.018
G1 F900 X122.617 Y122.176 E212.80195
G0 F10500 X121.540 Y120.215
G1 F900 X117.015 Y115.690 E213.06841
G0 F10500 X120.427 Y140.315
G1 F900 X60.010 Y79.898 E216.62606
G0 F10500 X60.009 Y80.781
G1 F900 X120.029 Y140.801 E220.16033
G0 F10500 X119.645 Y141.301
G1 F900 X60.039 Y81.695 E223.67023
G0 F10500 X60.112 Y82.652
G1 F900 X119.261 Y141.801 E227.15322
G0 F10500 X118.865 Y142.288
G1 F900 X60.222 Y83.646 E230.60638
G0 F10500 X60.410 Y84.718
G1 F900 X118.459 Y142.766 E234.02456
G0 F10500 X118.052 Y143.244
G1 F900 X60.690 Y85.881 E237.40235
G0 F10500 X61.002 Y87.077
G1 F900 X117.599 Y143.674 E240.73506
G0 F10500 X117.127 Y144.087
G1 F900 X61.329 Y88.288 E244.02075
G0 F10500 X61.688 Y89.531
G1 F900 X116.613 Y144.456 E247.25501
G0 F10500 X116.077 Y144.804
G1 F900 X61.995 Y90.722 E250.43962
G0 F10500 X62.209 Y91.819
G1 F900 X115.506 Y145.117 E253.57805
G0 F10500 X114.923 Y145.417
G1 F900 X62.380 Y92.875 E256.67201
G0 F10500 X62.553 Y93.932
G1 F900 X114.309 Y145.688 E259.71966
G0 F10500 X113.666 Y145.929
G1 F900 X62.725 Y94.987 E262.71935
G0 F10500 X62.953 Y96.099
G1 F900 X113.072 Y146.219 E265.67063
G0 F10500 X112.476 Y146.506
G1 F900 X63.316 Y97.346 E268.56541
G0 F10500 X63.724 Y98.638
G1 F900 X111.873 Y146.787 E271.40067
G0 F10500 X111.292 Y147.090
G1 F900 X64.080 Y99.878 E274.18074
G0 F10500 X64.560 Y101.242
G1 F900 X110.740 Y147.422 E276.90005
G0 F10500 X110.162 Y147.728
G1 F900 X64.921 Y102.487 E279.56406
G0 F10500 X64.963 Y103.412
G1 F900 X109.559 Y148.008 E282.19010
G0 F10500 X108.897 Y148.230
G1 F900 X64.799 Y104.132 E284.78681
G0 F10500 X64.522 Y104.740
G1 F900 X108.210 Y148.428 E287.35937
G0 F10500 X107.485 Y148.586
G1 F900 X64.191 Y105.293 E289.90871
G0 F10500 X63.845 Y105.830
G1 F900 X106.805 Y148.790 E292.43841
G0 F10500 X106.163 Y149.032
G1 F900 X63.477 Y106.346 E294.95197
G0 F10500 X63.134 Y106.887
G1 F900 X105.455 Y149.208 E297.44404
G0 F10500 X104.678 Y149.315
G1 F900 X62.806 Y107.443 E299.90967
G0 F10500 X62.564 Y108.085
G1 F900 X103.775 Y149.296 E302.33638
G0 F10500 X102.716 Y149.121
G1 F900 X62.383 Y108.788 E304.71138
G0 F10500 X62.261 Y109.549
G1 F900 X101.720 Y149.009 E307.03496
G0 F10500 X100.677 Y148.849
G1 F900 X62.166 Y110.339 E309.30264
G0 F10500 X62.159 Y111.215
G1 F900 X98.666 Y147.723 E311.45239
G0 F10500 X94.813 Y144.753
G1 F900 X92.562 Y142.502 E311.58494
G0 F10500 X91.371 Y141.015
G0 X89.321 Y139.261
G1 F900 X62.236 Y112.176 E313.17984
G0 F10500 X62.401 Y113.225
G1 F900 X87.469 Y138.293 E314.65596
G0 F10500 X85.228 Y136.936
G1 F900 X62.718 Y114.426 E315.98146
G0 F10500 X63.158 Y115.749
G1 F900 X84.155 Y136.747 E317.21790
G0 F10500 X83.256 Y136.732
G1 F900 X63.725 Y117.200 E318.36801
G0 F10500 X64.704 Y119.064
G1 F900 X82.419 Y136.779 E319.41116
G0 F10500 X81.624 Y136.868
G1 F900 X64.895 Y120.138 E320.39628
G0 F10500 X65.295 Y121.422
G1 F900 X80.826 Y136.953 E321.31082
G0 F10500 X79.965 Y136.977
G1 F900 X65.340 Y122.351 E322.17204
G0 F10500 X65.206 Y123.101
G1 F900 X79.081 Y136.976 E322.98907
G0 F10500 X78.121 Y136.900
G1 F900 X65.357 Y124.136 E323.74068
G0 F10500 X65.777 Y125.440
G1 F900 X77.146 Y136.809 E324.41014
G0 F10500 X76.114 Y136.661
G1 F900 X66.081 Y126.628 E325.00093
G0 F10500 X66.058 Y127.489
G1 F900 X74.813 Y136.243 E325.51644
G0 F10500 X73.513 Y135.828
G1 F900 X65.886 Y128.200 E325.96558
G0 F10500 X65.683 Y128.882
G1 F900 X72.240 Y135.439 E326.35169
G0 F10500 X70.913 Y134.995
G1 F900 X65.864 Y129.947 E326.64897
G0 F10500 X66.040 Y131.007
G1 F900 X69.113 Y134.079 E326.82990
G0 F10500 X104.813 Y76.971
G1 F900 X67.642 Y39.800 E329.01871
G0 F10500 X68.050 Y39.325
G1 F900 X105.039 Y76.313 E331.19678
G0 F10500 X105.279 Y75.669
G1 F900 X68.472 Y38.863 E333.36413
G0 F10500 X68.904 Y38.411
G1 F900 X105.574 Y75.081 E335.52344
G0 F10500 X105.794 Y74.417
G1 F900 X69.342 Y37.965 E337.66991
G0 F10500 X69.780 Y37.519
G1 F900 X106.061 Y73.800 E339.80632
G0 F10500 X106.317 Y73.172
G1 F900 X70.227 Y37.082 E341.93147
G0 F10500 X70.682 Y36.653
G1 F900 X106.586 Y72.557 E344.04568
G0 F10500 X106.900 Y71.987
G1 F900 X71.149 Y36.236 E346.15088
G0 F10500 X71.629 Y35.833
G1 F900 X107.229 Y71.432 E348.24715
G0 F10500 X107.568 Y70.888
G1 F900 X72.121 Y35.440 E350.33448
G0 F10500 X72.623 Y35.059
G1 F900 X107.886 Y70.321 E352.41091
G0 F10500 X108.182 Y69.734
G1 F900 X73.152 Y34.704 E354.47365
G0 F10500 X73.683 Y34.351
G1 F900 X108.424 Y69.092 E356.51937
G0 F10500 X108.639 Y68.423
G1 F900 X74.234 Y34.018 E358.54531
G0 F10500 X74.814 Y33.714
G1 F900 X108.790 Y67.690 E360.54598
G0 F10500 X108.910 Y66.926
G1 F900 X75.387 Y33.403 E362.51998
G0 F10500 X75.958 Y33.090
G1 F900 X108.996 Y66.128 E364.46542
G0 F10500 X109.072 Y65.321
G1 F900 X76.556 Y32.804 E366.38015
G0 F10500 X77.194 Y32.558
G1 F900 X109.180 Y64.545 E368.26368
G0 F10500 X109.318 Y63.799
G1 F900 X77.841 Y32.321 E370.11723
G0 F10500 X78.489 Y32.086
G1 F900 X109.527 Y63.124 E371.94490
G0 F10500 X109.798 Y62.511
G1 F900 X79.220 Y31.933 E373.74548
G0 F10500 X79.968 Y31.797
G1 F900 X110.136 Y61.965 E375.52193
G0 F10500 X110.525 Y61.470
G1 F900 X80.731 Y31.676 E377.27634
G0 F10500 X81.482 Y31.543
G1 F900 X110.953 Y61.014 E379.01174
G0 F10500 X111.413 Y60.590
G1 F900 X82.232 Y31.410 E380.73004
G0 F10500 X82.944 Y31.237
G1 F900 X111.905 Y60.198 E382.43540
G0 F10500 X112.433 Y59.843
G1 F900 X83.666 Y31.076 E384.12935
G0 F10500 X84.447 Y30.973
G1 F900 X112.987 Y59.513 E385.80992
G0 F10500 X113.539 Y59.181
G1 F900 X85.219 Y30.860 E387.47757
G0 F10500 X86.009 Y30.767
G1 F900 X114.066 Y58.824 E389.12971
G0 F10500 X114.579 Y58.453
G1 F900 X86.775 Y30.649 E390.76695
G0 F10500 X87.460 Y30.450
G1 F900 X115.092 Y58.082 E392.39406
G0 F10500 X115.596 Y57.702
G1 F900 X88.145 Y30.251 E394.01051
G0 F10500 X88.797 Y30.019
G1 F900 X116.096 Y57.318 E395.61801
G0 F10500 X116.588 Y56.927
G1 F900 X89.449 Y29.787 E397.21611
G0 F10500 X90.026 Y29.480
G1 F900 X117.080 Y56.535 E398.80922
G0 F10500 X117.610 Y56.181
G1 F900 X90.578 Y29.149 E400.40100
G0 F10500 X91.148 Y28.835
G1 F900 X118.199 Y55.886 E401.99389
G0 F10500 X118.824 Y55.627
G1 F900 X91.759 Y28.562 E403.58761
G0 F10500 X92.411 Y28.330
G1 F900 X119.446 Y55.365 E405.17957
G0 F10500 X120.066 Y55.102
G1 F900 X93.094 Y28.129 E406.76784
G0 F10500 X93.823 Y27.974
G1 F900 X120.676 Y54.828 E408.34911
G0 F10500 X121.260 Y54.527
G1 F900 X94.582 Y27.850 E409.92001
G0 F10500 X95.298 Y27.682
G1 F900 X121.826 Y54.209 E411.48208
G0 F10500 X122.363 Y53.863
G1 F900 X96.009 Y27.509 E413.03394
G0 F10500 X96.750 Y27.366
G1 F900 X122.900 Y53.515 E414.57375
G0 F10500 X123.436 Y53.168
G1 F900 X97.406 Y27.138 E416.10653
G0 F10500 X98.116 Y26.964
G1 F900 X123.978 Y52.826 E417.62941
G0 F10500 X124.529 Y52.494
G1 F900 X98.837 Y26.801 E419.14231
G0 F10500 X99.557 Y26.637
G1 F900 X125.087 Y52.168 E420.64567
G0 F10500 X125.645 Y51.841
G1 F900 X100.266 Y26.462 E422.14011
G0 F10500 X100.982 Y26.295
G1 F900 X126.191 Y51.504 E423.62454
G0 F10500 X126.725 Y51.154
G1 F900 X101.643 Y26.071 E425.10153
G0 F10500 X102.226 Y25.771
G1 F900 X127.260 Y50.804 E426.57562
G0 F10500 X127.766 Y50.427
G1 F900 X102.782 Y25.443 E428.04680
G0 F10500 X103.313 Y25.090
G1 F900 X128.265 Y50.042 E429.51610
G0 F10500 X128.764 Y49.657
G1 F900 X103.777 Y24.670 E430.98746
G0 F10500 X104.166 Y24.175
G1 F900 X129.264 Y49.273 E432.46536
G0 F10500 X129.756 Y48.881
G1 F900 X104.527 Y23.652 E433.95096
G0 F10500 X104.885 Y23.126
G1 F900 X130.239 Y48.481 E435.44396
G0 F10500 X130.706 Y48.064
G1 F900 X105.282 Y22.640 E436.94105
G0 F10500 X105.707 Y22.181
G1 F900 X131.169 Y47.643 E438.44038
G0 F10500 X131.618 Y47.207
G1 F900 X106.141 Y21.731 E439.94056
G0 F10500 X106.612 Y21.318
G1 F900 X132.056 Y46.762 E441.43883
G0 F10500 X132.489 Y46.311
G1 F900 X107.094 Y20.916 E442.93422
G0 F10500 X107.575 Y20.513
G1 F900 X132.910 Y45.848 E444.42607
G0 F10500 X133.320 Y45.374
G1 F900 X107.988 Y20.042 E445.91774
G0 F10500 X108.350 Y19.521
G1 F900 X133.723 Y44.894 E447.41183
G0 F10500 X134.087 Y44.374
G1 F900 X108.666 Y18.953 E448.90874
G0 F10500 X108.982 Y18.385
G1 F900 X134.430 Y43.833 E450.40725
G0 F10500 X134.744 Y43.262
G1 F900 X109.253 Y17.772 E451.90825
G0 F10500 X109.496 Y17.131
G1 F900 X135.012 Y42.647 E453.41076
G0 F10500 X135.230 Y41.981
G1 F900 X109.671 Y16.422 E454.91580
G0 F10500 X109.772 Y15.639
G1 F900 X135.449 Y41.316 E456.42779
G0 F10500 X135.635 Y40.618
G1 F900 X109.918 Y14.901 E457.94214
G0 F10500 X110.119 Y14.219
G1 F900 X135.816 Y39.915 E459.45527
G0 F10500 X136.003 Y39.218
G1 F900 X110.430 Y13.645 E460.96114
G0 F10500 X110.776 Y13.107
G1 F900 X136.190 Y38.521 E462.45764
G0 F10500 X136.314 Y37.762
G1 F900 X111.132 Y12.580 E463.94048
G0 F10500 X111.785 Y12.349
G1 F900 X136.396 Y36.960 E465.38970
G0 F10500 X136.481 Y36.161
G1 F900 X112.595 Y12.275 E466.79623
G0 F10500 X113.234 Y12.030
G1 F900 X136.556 Y35.352 E468.16954
G0 F10500 X136.596 Y34.508
G1 F900 X113.718 Y11.630 E469.51671
G0 F10500 X114.102 Y11.131
G1 F900 X136.590 Y33.618 E470.84089
G0 F10500 X136.572 Y32.717
G1 F900 X114.432 Y10.576 E472.14463
G0 F10500 X114.648 Y9.908
G1 F900 X136.468 Y31.729 E473.42953
G0 F10500 X135.978 Y30.355
G1 F900 X114.781 Y9.158 E474.67771
G0 F10500 X115.175 Y8.668
G1 F900 X135.533 Y29.026 E475.87649
G0 F10500 X134.489 Y27.098
G1 F900 X126.388 Y18.997 E476.35352
G0 F10500 X127.574 Y19.299
G1 F900 X133.321 Y25.046 E476.69193
G0 F10500 X131.062 Y21.904
G1 F900 X129.204 Y20.045 E476.80137
G0 F10500 X125.276 Y17.902
G0 X124.115 Y16.724
G1 F900 X115.776 Y8.384 E477.29244
G0 F10500 X116.195 Y7.920
G1 F900 X123.400 Y15.125 E477.71671
G0 F10500 X122.611 Y13.452
G1 F900 X116.635 Y7.476 E478.06860
G0 F10500 X117.159 Y7.117
G1 F900 X121.883 Y11.841 E478.34677
G0 F10500 X121.016 Y10.089
G1 F900 X117.806 Y6.880 E478.53577
G0 F10500 X118.542 Y6.732
G1 F900 X120.376 Y8.565 E478.64373
G0 F10500 X119.875 Y7.180
G1 F900 X119.383 Y6.689 E478.67267
G1 F600 E477.17267
G1 Z0.525
G0 F10500 X64.659 Y39.151
;TYPE:SUPPORT
G1 Z0.425
G1 F600 E478.67267
G1 F900 X59.534 Y39.151 E478.88607
G0 F10500 X59.143 Y39.282
G1 F900 X59.143 Y55.725 E479.57072
G0 F10500 X59.143 Y54.800
G0 X57.477 Y54.800
G0 X57.477 Y55.725
G1 F900 X57.477 Y40.232 E480.21582
G0 F10500 X57.657 Y41.140
G0 X56.815 Y41.235
G0 X55.890 Y40.817
G1 F900 X65.640 Y40.817 E480.62179
G0 F10500 X64.706 Y40.534
G0 X63.682 Y41.968
G0 X64.449 Y42.483
G1 F900 X47.544 Y42.483 E481.32568
G0 F10500 X47.481 Y42.503
G1 F900 X47.481 Y54.455 E481.82333
G0 F10500 X47.474 Y53.528
G0 X45.808 Y53.544
G0 X45.815 Y54.470
G1 F900 X45.815 Y42.941 E482.30338
G0 F10500 X45.899 Y43.863
G0 X44.279 Y44.014
G0 X44.149 Y43.097
G1 F900 X44.149 Y54.909 E482.79521
G0 F10500 X44.047 Y53.989
G0 X42.392 Y54.155
G0 X42.483 Y55.076
G1 F900 X42.483 Y43.334 E483.28412
G0 F10500 X42.613 Y44.251
G0 X40.894 Y44.457
G0 X40.817 Y43.535
G1 F900 X40.817 Y55.075 E483.76462
G0 F10500 X41.110 Y54.199
G0 X45.353 Y53.451
G0 X48.560 Y53.420
G0 X49.328 Y53.675
G0 X49.147 Y54.581
G1 F900 X49.147 Y41.948 E484.29063
G1 F600 E482.79063
G1 Z0.525
G0 F10500 X50.813 Y41.896
G1 Z0.425
G1 F600 E484.29063
G1 F900 X50.813 Y54.725 E484.82481
G0 F10500 X50.813 Y53.800
G0 X52.463 Y53.785
G0 X52.479 Y54.711
G1 F900 X52.479 Y41.875 E485.35927
G0 F10500 X52.479 Y42.800
G0 X54.368 Y42.393
G0 X54.145 Y41.495
G1 F900 X54.145 Y54.983 E485.92088
G0 F10500 X54.436 Y54.106
G0 X55.811 Y54.400
G0 X55.811 Y55.325
G1 F900 X55.811 Y41.061 E486.51481
G0 F10500 X56.102 Y41.940
G0 X60.923 Y39.882
G0 X60.809 Y38.962
G1 F900 X60.809 Y55.725 E487.21278
G0 F10500 X60.604 Y54.800
G0 X60.678 Y53.982
G0 X61.587 Y54.145
G1 F900 X26.689 Y54.145 E488.66586
G0 F10500 X27.489 Y55.247
G1 F900 X27.489 Y42.857 E489.18176
G0 F10500 X26.354 Y42.483
G1 F900 X14.889 Y42.483 E489.65914
G0 F10500 X15.815 Y42.095
G0 X16.677 Y42.255
G0 X16.477 Y43.012
G0 X15.815 Y44.149
G0 X14.889 Y44.149
G1 F900 X63.467 Y44.149 E491.68183
G0 F10500 X64.141 Y42.955
G1 F900 X64.141 Y38.543 E491.86553
G0 F10500 X63.436 Y39.141
G0 X62.889 Y39.091
G0 X62.475 Y38.264
G1 F900 X62.475 Y47.692 E492.25810
G0 F10500 X62.511 Y47.481
G1 F900 X15.139 Y47.481 E494.23057
G0 F10500 X15.827 Y48.168
G1 F900 X15.827 Y34.922 E494.78211
G0 F10500 X14.689 Y35.819
G1 F900 X20.290 Y35.819 E495.01532
G0 F10500 X20.825 Y36.353
G1 F900 X20.825 Y50.224 E495.59288
G0 F10500 X21.049 Y49.328
G0 X22.903 Y49.817
G0 X22.491 Y50.643
G1 F900 X22.491 Y39.475 E496.05789
G0 F10500 X22.239 Y39.151
G1 F900 X14.842 Y39.151 E496.36589
G0 F10500 X15.556 Y38.415
G0 X15.615 Y37.485
G0 X14.689 Y37.485
G1 F900 X21.639 Y37.485 E496.65527
G0 F10500 X20.715 Y37.519
G0 X20.653 Y38.679
G0 X21.274 Y40.441
G0 X22.666 Y41.500
G0 X23.289 Y40.817
G1 F900 X14.889 Y40.817 E497.00503
G0 F10500 X15.815 Y40.817
G0 X16.685 Y42.572
G0 X16.477 Y43.012
G0 X15.615 Y45.815
G0 X14.689 Y45.815
G1 F900 X62.856 Y45.815 E499.01061
G0 F10500 X61.963 Y45.579
G0 X61.328 Y49.015
G0 X62.243 Y49.147
G1 F900 X18.896 Y49.147 E500.81549
G0 F10500 X19.159 Y49.300
G1 F900 X19.159 Y34.690 E501.42382
G0 F10500 X18.622 Y34.153
G1 F900 X17.724 Y34.153 E501.46121
G0 F10500 X17.493 Y34.248
G1 F900 X17.493 Y49.050 E502.07753
G0 F10500 X17.674 Y48.144
G0 X19.090 Y48.104
G0 X23.241 Y49.986
G0 X22.828 Y50.813
G1 F900 X62.028 Y50.813 E503.70974
G0 F10500 X61.111 Y50.701
G0 X60.911 Y52.369
G0 X61.828 Y52.479
G1 F900 X25.889 Y52.479 E505.20617
G0 F10500 X25.823 Y52.009
G1 F900 X25.823 Y42.149 E505.61672
G0 F10500 X25.410 Y42.976
G0 X23.865 Y42.149
G0 X24.157 Y41.273
G1 F900 X24.157 Y51.498 E506.04246
G0 F10500 X24.811 Y50.846
G0 X25.890 Y50.904
G0 X26.885 Y51.428
G0 X27.699 Y52.815
G0 X28.788 Y55.023
G0 X28.268 Y55.811
G1 F900 X30.159 Y55.811 E506.12120
G0 F10500 X30.821 Y55.646
G1 F900 X30.821 Y42.875 E506.65296
G0 F10500 X30.821 Y43.800
G0 X29.155 Y43.800
G0 X29.155 Y42.875
G1 F900 X29.155 Y55.925 E507.19634
G0 F10500 X29.155 Y55.000
G0 X32.336 Y54.405
G0 X32.487 Y55.317
G1 F900 X32.487 Y42.875 E507.71439
G1 F600 E506.21439
G1 Z0.525
G0 F10500 X34.153 Y44.072
G1 Z0.425
G1 F600 E507.71439
G1 F900 X34.153 Y54.949 E508.16729
G0 F10500 X34.061 Y54.028
G0 X35.781 Y53.747
G0 X35.819 Y54.782
G1 F900 X35.819 Y44.089 E508.61253
G0 F10500 X35.813 Y45.013
G0 X36.854 Y45.114
G0 X37.586 Y44.777
G0 X37.485 Y43.857
G1 F900 X37.485 Y54.610 E509.06026
G0 F10500 X37.451 Y53.685
G0 X39.119 Y53.624
G0 X39.151 Y54.548
G1 F900 X39.151 Y43.674 E509.51303
G1 F600 E508.01303
G1 Z0.525
G0 F10500 X61.271 Y115.787
G1 Z0.425
G1 F600 E509.51303
G1 F900 X61.777 Y115.787 E509.53410
G0 F10500 X60.809 Y116.249
G1 F900 X60.809 Y137.349 E510.41266
G0 F10500 X60.434 Y137.445
G1 F900 X14.812 Y137.445 E512.31227
G0 F10500 X15.592 Y137.973
G0 X15.899 Y137.786
G0 X15.815 Y135.779
G0 X14.889 Y135.779
G1 F900 X66.194 Y135.779 E514.44850
G0 F10500 X65.289 Y135.599
G0 X65.200 Y136.400
G0 X65.807 Y137.325
G1 F900 X65.807 Y132.538 E514.64782
G0 F10500 X65.737 Y132.447
G1 F900 X29.894 Y132.447 E516.14025
G0 F10500 X29.155 Y132.552
G1 F900 X29.155 Y142.966 E516.57387
G0 F10500 X29.247 Y142.047
G0 X27.479 Y141.906
G0 X27.489 Y142.833
G1 F900 X27.489 Y132.621 E516.99907
G0 F10500 X27.039 Y132.447
G1 F900 X15.089 Y132.447 E517.49665
G0 F10500 X15.827 Y131.457
G1 F900 X15.827 Y142.568 E517.95929
G0 F10500 X15.701 Y142.443
G1 F900 X43.439 Y142.443 E519.11424
G0 F10500 X43.499 Y142.443
G1 F900 X47.627 Y142.443 E519.28612
G0 F10500 X47.481 Y142.591
G1 F900 X47.481 Y123.377 E520.08615
G0 F10500 X48.062 Y124.103
G0 X49.460 Y123.105
G0 X48.807 Y122.451
G1 F900 X64.296 Y122.451 E520.73108
G0 F10500 X64.141 Y123.134
G1 F900 X64.141 Y121.251 E520.80949
G0 F10500 X63.969 Y120.785
G1 F900 X51.039 Y120.785 E521.34787
G0 F10500 X50.813 Y120.860
G1 F900 X50.813 Y139.797 E522.13636
G0 F10500 X50.588 Y138.899
G0 X51.603 Y138.484
G0 X52.190 Y138.672
G0 X52.479 Y139.551
G1 F900 X52.479 Y120.163 E522.94364
G0 F10500 X52.891 Y120.991
G0 X54.774 Y119.792
G0 X54.145 Y119.114
G1 F900 X54.145 Y138.895 E523.76728
G0 F10500 X53.701 Y139.111
G1 F900 X14.689 Y139.111 E525.39166
G0 F10500 X15.615 Y139.111
G0 X17.493 Y142.200
G0 X17.493 Y143.125
G1 F900 X17.493 Y129.652 E525.95265
G0 F10500 X17.200 Y130.528
G0 X17.215 Y130.781
G0 X16.289 Y130.781
G1 F900 X20.879 Y130.781 E526.14377
G0 F10500 X20.825 Y130.763
G1 F900 X20.825 Y142.906 E526.64938
G0 F10500 X20.814 Y141.980
G0 X22.481 Y141.962
G0 X22.491 Y142.888
G1 F900 X22.491 Y132.075 E527.09961
G0 F10500 X22.491 Y133.000
G0 X23.973 Y133.000
G0 X24.157 Y132.075
G1 F900 X24.157 Y142.869 E527.54905
G0 F10500 X24.147 Y141.943
G0 X25.813 Y141.925
G0 X25.823 Y142.851
G1 F900 X25.823 Y131.392 E528.02618
G1 F600 E526.52618
G1 Z0.525
G0 F10500 X30.821 Y131.992
G1 Z0.425
G1 F600 E528.02618
G1 F900 X30.821 Y143.125 E528.48973
G0 F10500 X30.821 Y142.200
G0 X32.446 Y142.195
G0 X32.487 Y143.119
G1 F900 X32.487 Y131.359 E528.97940
G0 F10500 X32.712 Y132.257
G0 X34.254 Y132.059
G0 X34.153 Y131.139
G1 F900 X34.153 Y143.047 E529.47522
G0 F10500 X34.113 Y142.123
G0 X35.780 Y142.050
G0 X35.819 Y142.975
G1 F900 X35.819 Y130.724 E529.98533
G0 F10500 X35.649 Y130.781
G1 F900 X64.909 Y130.781 E531.20365
G0 F10500 X63.988 Y130.856
G0 X63.716 Y129.064
G0 X64.637 Y129.115
G1 F900 X39.289 Y129.115 E532.25909
G0 F10500 X39.151 Y129.275
G1 F900 X39.151 Y142.642 E532.81567
G0 F10500 X39.113 Y141.718
G0 X37.481 Y141.744
G0 X37.447 Y141.978
G0 X37.485 Y142.902
G1 F900 X37.485 Y130.675 E533.32477
G0 F10500 X37.485 Y131.600
G0 X38.310 Y131.788
G0 X38.885 Y131.573
G0 X40.817 Y130.000
G0 X40.817 Y129.075
G1 F900 X40.817 Y142.572 E533.88676
G0 F10500 X40.779 Y141.648
G0 X42.446 Y141.578
G0 X42.483 Y142.503
G1 F900 X42.483 Y127.574 E534.50837
G0 F10500 X42.706 Y127.449
G1 F900 X65.013 Y127.449 E535.43719
G0 F10500 X64.112 Y127.248
G0 X63.940 Y126.110
G0 X64.805 Y125.783
G1 F900 X44.474 Y125.783 E536.28373
G0 F10500 X44.149 Y126.127
G1 F900 X44.149 Y142.649 E536.97168
G0 F10500 X44.438 Y141.772
G0 X45.664 Y141.983
G0 X45.815 Y142.896
G1 F900 X45.815 Y124.242 E537.74839
G0 F10500 X45.940 Y124.117
G1 F900 X64.276 Y124.117 E538.51186
G0 F10500 X64.141 Y123.633
G1 F900 X64.141 Y137.325 E539.08197
G0 F10500 X64.141 Y136.400
G0 X62.475 Y136.400
G0 X62.475 Y137.325
G1 F900 X62.475 Y117.086 E539.92468
G0 F10500 X62.672 Y117.453
G1 F900 X59.605 Y117.453 E540.05238
G0 F10500 X59.143 Y117.915
G1 F900 X59.143 Y138.091 E540.89247
G0 F10500 X58.868 Y137.195
G0 X56.669 Y137.292
G0 X56.798 Y137.745
G0 X57.477 Y138.617
G1 F900 X57.477 Y118.275 E541.73947
G0 F10500 X57.477 Y119.200
G0 X55.991 Y119.553
G0 X55.811 Y118.646
G1 F900 X55.811 Y138.756 E542.57681
G0 F10500 X55.735 Y137.834
G0 X53.853 Y137.895
G0 X47.881 Y139.835
G0 X48.264 Y140.501
G0 X49.147 Y140.925
G1 F900 X49.147 Y122.111 E543.36019
G0 F10500 X49.800 Y122.765
G0 X54.517 Y120.187
G0 X54.774 Y119.792
G0 X54.140 Y119.119
G1 F900 X63.619 Y119.119 E543.75487
G0 F10500 X62.829 Y119.599
G0 X63.349 Y124.581
G0 X63.990 Y131.349
G0 X64.559 Y132.593
G0 X65.621 Y133.932
G0 X66.526 Y134.113
G1 F900 X15.089 Y134.113 E545.89660
G0 F10500 X16.015 Y134.113
G0 X18.866 Y131.084
G0 X19.159 Y130.208
G1 F900 X19.159 Y142.934 E546.42649
G0 F10500 X19.029 Y142.018
G0 X15.615 Y140.480
G0 X14.689 Y140.777
G1 F900 X49.293 Y140.777 E547.86733
G1 F600 E546.36733
G1 Z0.525
G0 F10500 X139.111 Y33.912
G1 Z0.425
G1 F600 E547.86733
G1 F900 X139.111 Y29.275 E548.06040
G1 F600 E546.56040
G1 Z0.525
G0 F10500 X137.445 Y29.275
G1 Z0.425
G1 F600 E548.06040
G1 F900 X137.445 Y30.893 E548.12777
G0 F10500 X137.437 Y30.821
G1 F900 X142.177 Y30.821 E548.32514
G0 F10500 X142.443 Y31.466
G1 F900 X142.443 Y32.428 E548.36519
G0 F10500 X142.382 Y32.487
G1 F900 X137.612 Y32.487 E548.56381
G0 F10500 X138.532 Y32.392
G0 X140.103 Y33.283
G0 X139.794 Y34.153
G1 F900 X140.716 Y34.153 E548.60220
G0 F10500 X140.777 Y34.094
G1 F900 X140.777 Y29.275 E548.80285
;LAYER:1
M106 S191
G1 F600 E547.30285
G1 Z0.525
G0 F10500 X136.677 Y30.965 Z0.805
;TYPE:WALL-INNER
G1 Z0.805
G1 F600 E548.80285
G1 F1140 X136.811 Y31.428 E548.81720
G1 X136.973 Y32.300 E548.84362
G1 X137.040 Y33.651 E548.88391
G1 X137.047 Y34.019 E548.89487
G1 X137.041 Y34.516 E548.90967
G1 X136.993 Y35.223 E548.93078
G1 X136.845 Y36.750 E548.97647
G1 X136.765 Y37.478 E548.99828
G1 X136.615 Y38.327 E549.02396
G1 X136.499 Y38.996 E549.04418
G1 X136.394 Y39.521 E549.06013
G1 X135.699 Y41.932 E549.13486
G1 X135.645 Y42.104 E549.14023
G1 X135.283 Y42.921 E549.16684
G1 X134.957 Y43.725 E549.19268
G1 X134.608 Y44.418 E549.21579
G1 X134.492 Y44.605 E549.22235
G1 X134.001 Y45.231 E549.24604
G1 X133.769 Y45.526 E549.25722
G1 X133.303 Y46.028 E549.27762
G1 X132.992 Y46.383 E549.29168
G1 X132.333 Y47.038 E549.31935
G1 X131.940 Y47.411 E549.33549
G1 X131.278 Y47.998 E549.36184
G1 X129.916 Y49.264 E549.41722
G1 X129.232 Y49.847 E549.44399
G1 X128.821 Y50.196 E549.46005
G1 X128.197 Y50.669 E549.48337
G1 X127.537 Y51.150 E549.50769
G1 X127.015 Y51.507 E549.52653
G1 X126.378 Y51.924 E549.54920
G1 X125.720 Y52.289 E549.57161
G1 X124.935 Y52.715 E549.59821
G1 X124.171 Y53.187 E549.62496
G1 X123.625 Y53.542 E549.64436
G1 X122.523 Y54.273 E549.68374
G1 X121.651 Y54.773 E549.71368
G1 X120.377 Y55.355 E549.75540
G1 X119.234 Y55.817 E549.79212
G1 X118.241 Y56.235 E549.82420
G1 X117.738 Y56.471 E549.84075
G1 X116.373 Y57.526 E549.89213
G1 X115.373 Y58.402 E549.93173
G1 X114.846 Y58.818 E549.95173
G1 X113.928 Y59.441 E549.98477
G1 X113.122 Y59.935 E550.01292
G1 X112.676 Y60.203 E550.02842
G1 X111.911 Y60.718 E550.05589
G1 X111.488 Y61.083 E550.07253
G1 X110.611 Y61.957 E550.10940
G1 X110.259 Y62.437 E550.12713
G1 X109.964 Y63.028 E550.14680
G1 X109.686 Y63.950 E550.17549
G1 X109.568 Y64.637 E550.19625
G1 X109.501 Y64.992 E550.20701
G1 X109.283 Y67.100 E550.27012
G1 X109.204 Y67.753 E550.28971
G1 X108.895 Y68.986 E550.32757
G1 X108.620 Y69.699 E550.35033
G1 X108.491 Y70.016 E550.36053
G1 X108.138 Y70.694 E550.38329
G1 X107.767 Y71.350 E550.40574
G1 X107.434 Y71.861 E550.42390
G1 X106.901 Y72.800 E550.45606
G1 X106.603 Y73.386 E550.47564
G1 X106.484 Y73.657 E550.48446
G1 X106.476 Y73.865 E550.49066
G1 X106.251 Y74.519 E550.51126
G1 X106.220 Y74.791 E550.51941
G1 X105.874 Y75.525 E550.54358
G1 X105.600 Y76.139 E550.56360
G1 X105.297 Y76.767 E550.58437
G1 X105.109 Y77.272 E550.60042
G1 X104.943 Y77.881 E550.61922
G1 X104.790 Y78.466 E550.63723
G1 X104.622 Y79.537 E550.66952
G1 X104.527 Y80.532 E550.69929
G1 X104.513 Y80.719 E550.70487
G1 X104.559 Y81.028 E550.71418
G1 X104.558 Y81.238 E550.72043
G1 X104.594 Y81.516 E550.72878
G1 X104.621 Y82.147 E550.74759
G1 X104.604 Y82.338 E550.75330
G1 X104.702 Y83.151 E550.77769
G1 X104.706 Y83.491 E550.78782
G1 X104.763 Y84.205 E550.80915
G1 X104.744 Y84.895 E550.82971
G1 X104.773 Y85.389 E550.84445
G1 X104.844 Y85.786 E550.85646
G1 X104.872 Y86.397 E550.87467
G1 X104.867 Y86.807 E550.88689
G1 X104.940 Y87.239 E550.89994
G1 X104.908 Y88.300 E550.93155
G1 X104.891 Y88.649 E550.94196
G1 X104.823 Y89.173 E550.95769
G1 X104.721 Y90.012 E550.98287
G1 X104.683 Y91.600 E551.03018
G1 X104.686 Y92.589 E551.05963
G1 X104.741 Y93.488 E551.08646
G1 X104.810 Y94.169 E551.10684
G1 X104.846 Y94.352 E551.11240
G1 X104.920 Y95.285 E551.14027
G1 X104.958 Y95.771 E551.15479
G1 X104.937 Y96.414 E551.17395
G1 X105.001 Y96.863 E551.18746
G1 X105.015 Y97.088 E551.19418
G1 X105.004 Y98.257 E551.22899
G1 X105.048 Y99.058 E551.25289
G1 X105.051 Y99.560 E551.26784
G1 X105.007 Y101.561 E551.32745
G1 X105.005 Y101.995 E551.34037
G1 X104.939 Y103.213 E551.37670
G1 X104.888 Y104.082 E551.40263
G1 X104.891 Y104.342 E551.41037
G1 X104.888 Y104.424 E551.41282
G1 X104.863 Y104.644 E551.41941
G1 X104.849 Y105.295 E551.43881
G1 X104.651 Y106.681 E551.48051
G1 X104.568 Y107.198 E551.49610
G1 X104.430 Y107.820 E551.51508
G1 X104.171 Y108.859 E551.54697
G1 X104.063 Y109.258 E551.55928
G1 X103.988 Y109.892 E551.57829
G1 X103.930 Y110.462 E551.59536
G1 X103.954 Y110.862 E551.60729
G1 X104.134 Y111.377 E551.62354
G1 X104.416 Y111.899 E551.64121
G1 X104.996 Y112.502 E551.66613
G1 X105.235 Y112.708 E551.67553
G1 X105.553 Y112.938 E551.68722
G1 X106.069 Y113.233 E551.70492
G1 X106.833 Y113.497 E551.72899
G1 X107.632 Y113.653 E551.75324
G1 X108.635 Y113.751 E551.78325
G1 X112.720 Y113.997 E551.90514
G1 X113.494 Y114.110 E551.92844
G1 X114.313 Y114.288 E551.95340
G1 X114.833 Y114.418 E551.96936
G1 X115.465 Y114.612 E551.98905
G1 X116.500 Y114.995 E552.02192
G1 X117.446 Y115.476 E552.05353
G1 X118.113 Y115.889 E552.07690
G1 X119.250 Y116.768 E552.11970
G1 X119.475 Y116.963 E552.12857
G1 X120.167 Y117.702 E552.15872
G1 X120.600 Y118.246 E552.17943
G1 X121.209 Y119.044 E552.20933
G1 X121.566 Y119.572 E552.22831
G1 X121.920 Y120.121 E552.24776
G1 X122.561 Y121.228 E552.28586
G1 X122.954 Y121.999 E552.31164
G1 X123.160 Y122.436 E552.32603
G1 X123.404 Y123.028 E552.34510
G1 X123.856 Y124.307 E552.38550
G1 X124.035 Y124.930 E552.40480
G1 X124.263 Y125.928 E552.43529
G1 X124.406 Y126.754 E552.46026
G1 X124.496 Y127.443 E552.48096
G1 X124.634 Y129.033 E552.52849
G1 X124.677 Y130.528 E552.57303
G1 X124.675 Y130.616 E552.57565
G1 X124.482 Y132.039 E552.61842
G1 X124.414 Y132.531 E552.63322
G1 X124.108 Y133.853 E552.67363
G1 X123.780 Y134.894 E552.70614
G1 X123.612 Y135.370 E552.72117
G1 X123.351 Y136.064 E552.74326
G1 X123.180 Y136.598 E552.75996
G1 X122.726 Y137.689 E552.79515
G1 X122.507 Y138.208 E552.81193
G1 X122.226 Y138.842 E552.83258
G1 X121.999 Y139.243 E552.84631
G1 X121.429 Y140.028 E552.87520
G1 X121.158 Y140.382 E552.88848
G1 X120.410 Y141.237 E552.92231
G1 X119.381 Y142.584 E552.97280
G1 X118.991 Y143.006 E552.98991
G1 X118.417 Y143.546 E553.01338
G1 X117.970 Y143.945 E553.03123
G1 X116.944 Y144.767 E553.07038
G1 X116.385 Y145.073 E553.08936
G1 X115.194 Y145.775 E553.13054
G1 X114.568 Y146.119 E553.15181
G1 X113.800 Y146.464 E553.17689
G1 X113.018 Y146.855 E553.20293
G1 X112.428 Y147.068 E553.22161
G1 X111.897 Y147.290 E553.23875
G1 X111.282 Y147.603 E553.25930
G1 X110.987 Y147.737 E553.26895
G1 X110.814 Y147.844 E553.27501
G1 X110.261 Y148.115 E553.29335
G1 X109.927 Y148.276 E553.30440
G1 X109.353 Y148.483 E553.32257
G1 X108.577 Y148.741 E553.34693
G1 X107.809 Y148.973 E553.37082
G1 X106.515 Y149.298 E553.41056
G1 X105.837 Y149.460 E553.43132
G1 X105.467 Y149.562 E553.44275
G1 X104.870 Y149.635 E553.46066
G1 X104.262 Y149.682 E553.47883
G1 X104.144 Y149.680 E553.48234
G1 X103.355 Y149.591 E553.50599
G1 X103.284 Y149.581 E553.50812
G1 X103.230 Y149.560 E553.50985
G1 X102.262 Y149.462 E553.53883
G1 X101.518 Y149.371 E553.56115
G1 X101.184 Y149.295 E553.57135
G1 X100.559 Y149.214 E553.59012
G1 X100.419 Y149.188 E553.59436
G1 X99.586 Y148.926 E553.62037
G1 X99.193 Y148.722 E553.63356
G1 X98.718 Y148.362 E553.65131
G1 X98.266 Y148.056 E553.66757
G1 X98.146 Y147.961 E553.67213
G1 X97.633 Y147.483 E553.69301
G1 X97.159 Y147.166 E553.70999
G1 X96.951 Y147.047 E553.71713
G1 X96.434 Y146.577 E553.73794
G1 X96.014 Y146.156 E553.75565
G1 X95.984 Y146.137 E553.75671
G1 X95.744 Y145.894 E553.76688
G1 X95.104 Y145.434 E553.79036
G1 X94.140 Y144.640 E553.82755
G1 X93.227 Y143.976 E553.86118
G1 X92.706 Y143.409 E553.88411
G1 X92.247 Y142.733 E553.90845
G1 X92.110 Y142.496 E553.91660
G1 X92.040 Y142.298 E553.92285
G1 X91.765 Y141.828 E553.93907
G1 X91.684 Y141.621 E553.94569
G1 X91.239 Y141.034 E553.96763
G1 X90.570 Y140.492 E553.99327
G1 X89.845 Y140.027 E554.01893
G1 X88.910 Y139.558 E554.05008
G1 X88.162 Y139.212 E554.07463
G1 X87.712 Y139.018 E554.08922
G1 X87.492 Y138.861 E554.09727
G1 X87.197 Y138.736 E554.10681
G1 X86.747 Y138.367 E554.12415
G1 X86.085 Y137.894 E554.14838
G1 X85.764 Y137.710 E554.15940
G1 X85.071 Y137.434 E554.18162
G1 X84.790 Y137.369 E554.19021
G1 X84.097 Y137.265 E554.21108
G1 X83.925 Y137.255 E554.21621
G1 X83.095 Y137.258 E554.24093
G1 X81.107 Y137.443 E554.30039
G1 X80.486 Y137.452 E554.31889
G1 X79.998 Y137.463 E554.33343
G1 X79.397 Y137.451 E554.35133
G1 X78.892 Y137.436 E554.36638
G1 X77.967 Y137.370 E554.39400
G1 X76.736 Y137.209 E554.43097
G1 X75.984 Y137.049 E554.45387
G1 X75.484 Y136.906 E554.46936
G1 X74.885 Y136.760 E554.48772
G1 X73.801 Y136.468 E554.52116
G1 X73.092 Y136.255 E554.54321
G1 X71.668 Y135.831 E554.58746
G1 X70.668 Y135.518 E554.61867
G1 X69.797 Y135.114 E554.64727
G1 X69.502 Y134.963 E554.65714
G1 X68.775 Y134.502 E554.68277
G1 X68.365 Y134.179 E554.69832
G1 X67.900 Y133.760 E554.71696
G1 X67.577 Y133.455 E554.73019
G1 X66.820 Y132.844 E554.75917
G1 X66.560 Y132.561 E554.77061
G1 X65.925 Y131.710 E554.80224
G1 X65.582 Y131.072 E554.82381
G1 X65.522 Y130.955 E554.82773
G1 X65.446 Y130.631 E554.83764
G1 X65.412 Y130.112 E554.85313
G1 X65.393 Y129.925 E554.85873
G1 X65.224 Y129.151 E554.88232
G1 X65.250 Y128.751 E554.89426
G1 X65.504 Y127.981 E554.91841
G1 X65.602 Y127.678 E554.92789
G1 X65.681 Y126.849 E554.95270
G1 X65.522 Y125.928 E554.98053
G1 X65.189 Y125.079 E555.00769
G1 X65.121 Y124.921 E555.01282
G1 X64.738 Y123.578 E555.05441
G1 X64.722 Y123.482 E555.05731
G1 X64.713 Y123.267 E555.06372
G1 X64.825 Y122.520 E555.08622
G1 X64.785 Y121.500 E555.11662
G1 X64.587 Y120.758 E555.13949
G1 X64.533 Y119.981 E555.16269
G1 X64.483 Y119.614 E555.17372
G1 X64.353 Y119.141 E555.18833
G1 X64.249 Y118.882 E555.19664
G1 X63.647 Y117.908 E555.23075
G1 X63.266 Y117.104 E555.25724
G1 X63.021 Y116.492 E555.27688
G1 X62.432 Y114.793 E555.33043
G1 X62.110 Y113.644 E555.36597
G1 X61.934 Y112.698 E555.39463
G1 X61.843 Y112.184 E555.41018
G1 X61.778 Y111.305 E555.43643
G1 X61.757 Y110.713 E555.45407
G1 X61.758 Y110.631 E555.45651
G1 X61.805 Y110.030 E555.47447
G1 X61.856 Y109.503 E555.49024
G1 X61.954 Y108.974 E555.50626
G1 X62.030 Y108.533 E555.51959
G1 X62.187 Y107.974 E555.53688
G1 X62.301 Y107.650 E555.54711
G1 X62.573 Y107.143 E555.56425
G1 X62.873 Y106.571 E555.58349
G1 X63.617 Y105.510 E555.62208
G1 X64.148 Y104.622 E555.65290
G1 X64.256 Y104.424 E555.65961
G1 X64.325 Y104.190 E555.66688
G1 X64.436 Y103.959 E555.67451
G1 X64.547 Y103.475 E555.68930
G1 X64.568 Y102.981 E555.70403
G1 X64.493 Y102.420 E555.72089
G1 X64.347 Y101.854 E555.73829
G1 X64.175 Y101.344 E555.75432
G1 X63.878 Y100.504 E555.78086
G1 X63.516 Y99.377 E555.81612
G1 X63.321 Y98.686 E555.83750
G1 X63.063 Y97.868 E555.86305
G1 X62.756 Y96.879 E555.89389
G1 X62.603 Y96.342 E555.91052
G1 X62.480 Y95.771 E555.92791
G1 X62.358 Y95.186 E555.94571
G1 X62.163 Y94.090 E555.97887
G1 X61.789 Y91.768 E556.04892
G1 X61.699 Y91.251 E556.06455
G1 X61.631 Y90.886 E556.07560
G1 X61.229 Y89.391 E556.12171
G1 X61.023 Y88.658 E556.14439
G1 X60.559 Y86.945 E556.19725
G1 X60.427 Y86.412 E556.21360
G1 X60.235 Y85.734 E556.23459
G1 X60.092 Y85.151 E556.25247
G1 X59.894 Y84.184 E556.28186
G1 X59.746 Y83.060 E556.31563
G1 X59.683 Y82.356 E556.33668
G1 X59.623 Y81.540 E556.36105
G1 X59.602 Y80.856 E556.38143
G1 X59.590 Y80.181 E556.40154
G1 X59.585 Y80.069 E556.40488
G1 X59.588 Y79.835 E556.41185
G1 X59.526 Y78.621 E556.44805
G1 X59.400 Y77.610 E556.47839
G1 X59.266 Y76.307 E556.51741
G1 X59.185 Y75.430 E556.54364
G1 X59.027 Y73.085 E556.61364
G1 X58.987 Y71.831 E556.65101
G1 X58.981 Y71.069 E556.67370
G1 X59.010 Y69.992 E556.70579
G1 X59.129 Y68.442 E556.75209
G1 X59.206 Y67.830 E556.77046
G1 X59.293 Y67.218 E556.78887
G1 X59.507 Y65.879 E556.82926
G1 X59.789 Y63.950 E556.88732
G1 X59.961 Y63.159 E556.91143
G1 X60.183 Y62.228 E556.93994
G1 X60.840 Y60.077 E557.00692
G1 X61.013 Y59.578 E557.02265
G1 X61.171 Y59.040 E557.03935
G1 X61.331 Y58.444 E557.05773
G1 X61.601 Y57.347 E557.09138
G1 X61.725 Y56.682 E557.11153
G1 X61.952 Y55.585 E557.14489
G1 X62.061 Y55.038 E557.16150
G1 X62.292 Y54.019 E557.19262
G1 X62.370 Y53.460 E557.20943
G1 X62.506 Y52.284 E557.24469
G1 X62.600 Y51.361 E557.27232
G1 X62.754 Y49.928 E557.31525
G1 X62.881 Y48.971 E557.34400
G1 X63.059 Y47.845 E557.37795
G1 X63.203 Y47.088 E557.40090
G1 X63.339 Y46.450 E557.42033
G1 X63.571 Y45.552 E557.44796
G1 X63.827 Y44.830 E557.47077
G1 X64.235 Y43.976 E557.49896
G1 X64.962 Y42.810 E557.53988
G1 X65.966 Y41.411 E557.59117
G1 X66.504 Y40.645 E557.61905
G1 X66.891 Y40.103 E557.63888
G1 X67.465 Y39.373 E557.66654
G1 X68.419 Y38.332 E557.70860
G1 X68.824 Y37.912 E557.72597
G1 X69.483 Y37.272 E557.75333
G1 X70.022 Y36.750 E557.77568
G1 X71.150 Y35.754 E557.82050
G1 X71.580 Y35.398 E557.83713
G1 X72.183 Y34.879 E557.86082
G1 X72.775 Y34.369 E557.88409
G1 X72.971 Y34.205 E557.89171
G1 X73.469 Y33.888 E557.90929
G1 X73.965 Y33.595 E557.92645
G1 X74.436 Y33.332 E557.94251
G1 X75.104 Y33.059 E557.96400
G1 X75.735 Y32.724 E557.98528
G1 X76.565 Y32.411 E558.01170
G1 X77.189 Y32.149 E558.03186
G1 X78.134 Y31.802 E558.06184
G1 X78.612 Y31.662 E558.07668
G1 X79.290 Y31.508 E558.09738
G1 X80.089 Y31.376 E558.12150
G1 X80.607 Y31.269 E558.13726
G1 X81.619 Y31.124 E558.16770
G1 X82.291 Y30.972 E558.18822
G1 X82.822 Y30.854 E558.20443
G1 X83.506 Y30.706 E558.22527
G1 X84.755 Y30.533 E558.26282
G1 X84.909 Y30.525 E558.26742
G1 X85.978 Y30.355 E558.29965
G1 X86.720 Y30.250 E558.32197
G1 X87.611 Y29.993 E558.34959
G1 X87.950 Y29.921 E558.35991
G1 X88.653 Y29.672 E558.38213
G1 X89.781 Y29.213 E558.41840
G1 X89.809 Y29.146 E558.42056
G1 X90.311 Y28.853 E558.43787
G1 X91.197 Y28.373 E558.46788
G1 X91.302 Y28.329 E558.47127
G1 X91.415 Y28.313 E558.47467
G1 X91.877 Y28.088 E558.48998
G1 X92.228 Y27.957 E558.50114
G1 X92.772 Y27.793 E558.51806
G1 X93.645 Y27.631 E558.54450
G1 X94.355 Y27.459 E558.56626
G1 X94.645 Y27.431 E558.57494
G1 X94.872 Y27.387 E558.58183
G1 X95.760 Y27.147 E558.60922
G1 X96.474 Y27.029 E558.63078
G1 X97.075 Y26.866 E558.64932
G1 X97.489 Y26.725 E558.66235
G1 X98.504 Y26.476 E558.69348
G1 X99.306 Y26.321 E558.71780
G1 X100.042 Y26.117 E558.74055
G1 X100.857 Y25.918 E558.76554
G1 X101.417 Y25.727 E558.78316
G1 X102.061 Y25.399 E558.80468
G1 X102.604 Y25.099 E558.82316
G1 X103.191 Y24.660 E558.84499
G1 X103.539 Y24.308 E558.85973
G1 X103.889 Y23.868 E558.87648
G1 X104.288 Y23.313 E558.89684
G1 X104.517 Y22.974 E558.90902
G1 X105.063 Y22.301 E558.93483
G1 X105.599 Y21.696 E558.95891
G1 X105.977 Y21.329 E558.97460
G1 X106.891 Y20.556 E559.01025
G1 X107.472 Y20.075 E559.03271
G1 X107.769 Y19.710 E559.04673
G1 X108.337 Y18.785 E559.07906
G1 X108.641 Y18.178 E559.09928
G1 X108.675 Y18.184 E559.10031
G1 X109.086 Y17.151 E559.13342
G1 X109.265 Y16.406 E559.15624
G1 X109.339 Y16.071 E559.16646
G1 X109.424 Y15.201 E559.19249
G1 X109.695 Y14.220 E559.22280
G1 X109.795 Y13.917 E559.23231
G1 X110.328 Y13.017 E559.26346
G1 X110.721 Y12.490 E559.28304
G1 X110.843 Y12.294 E559.28991
G1 X111.105 Y12.025 E559.30110
G1 X111.125 Y12.000 E559.30205
G1 X111.309 Y11.922 E559.30800
G1 X111.438 Y11.904 E559.31188
G1 X112.033 Y11.919 E559.32961
G1 X112.266 Y11.902 E559.33657
G1 X112.685 Y11.776 E559.34960
G1 X112.932 Y11.737 E559.35705
G1 X113.440 Y11.312 E559.37677
G1 X113.724 Y10.845 E559.39305
G1 X113.818 Y10.583 E559.40134
G1 X113.964 Y10.330 E559.41004
G1 X114.102 Y9.795 E559.42650
G1 X114.211 Y8.779 E559.45693
G1 X114.228 Y8.688 E559.45969
G1 X114.261 Y8.649 E559.46121
G1 X114.900 Y8.220 E559.48413
G1 X115.648 Y7.978 E559.50755
G1 X115.742 Y7.879 E559.51161
G1 X115.937 Y7.754 E559.51851
G1 X116.209 Y7.356 E559.53287
G1 X116.628 Y7.013 E559.54900
G1 X117.105 Y6.743 E559.56532
G1 X117.651 Y6.585 E559.58225
G1 X117.815 Y6.556 E559.58721
G1 X117.920 Y6.553 E559.59034
G1 X118.524 Y6.392 E559.60896
G1 X119.343 Y6.261 E559.63366
G1 X119.658 Y6.326 E559.64324
G1 X119.774 Y6.420 E559.64769
G1 X119.966 Y6.635 E559.65627
G1 X120.249 Y7.051 E559.67126
G1 X120.470 Y7.505 E559.68630
G1 X120.705 Y8.224 E559.70882
G1 X120.894 Y9.211 E559.73875
G1 X121.299 Y9.811 E559.76031
G1 X121.408 Y10.011 E559.76710
G1 X121.690 Y10.683 E559.78880
G1 X122.323 Y11.905 E559.82979
G1 X122.521 Y12.236 E559.84128
G1 X122.824 Y12.919 E559.86353
G1 X123.083 Y13.514 E559.88286
G1 X123.425 Y14.224 E559.90633
G1 X123.768 Y14.941 E559.93000
G1 X124.031 Y15.562 E559.95009
G1 X124.557 Y16.720 E559.98797
G1 X124.876 Y17.241 E560.00617
G1 X125.039 Y17.477 E560.01471
G1 X125.432 Y17.941 E560.03282
G1 X125.600 Y18.039 E560.03861
G1 X125.951 Y18.336 E560.05231
G1 X126.273 Y18.521 E560.06337
G1 X127.046 Y18.745 E560.08734
G1 X127.443 Y18.876 E560.09979
G1 X128.271 Y19.078 E560.12517
G1 X128.617 Y19.204 E560.13614
G1 X129.085 Y19.473 E560.15221
G1 X129.806 Y19.957 E560.17808
G1 X130.159 Y20.212 E560.19105
G1 X130.607 Y20.719 E560.21120
G1 X131.024 Y21.195 E560.23005
G1 X132.017 Y22.549 E560.28006
G1 X132.784 Y23.678 E560.32071
G1 X133.137 Y24.132 E560.33783
G1 X133.734 Y24.884 E560.36643
G1 X134.088 Y25.388 E560.38477
G1 X134.346 Y25.883 E560.40140
G1 X134.695 Y26.627 E560.42588
G1 X135.024 Y27.190 E560.44530
G1 X135.540 Y27.997 E560.47383
G1 X135.810 Y28.545 E560.49202
G1 X135.992 Y29.056 E560.50818
G1 X136.087 Y29.317 E560.51645
G1 X136.076 Y29.367 E560.51797
G1 X136.677 Y30.965 E560.56882
G0 F10500 X137.155 Y30.815
;TYPE:WALL-OUTER
G1 F1080 X137.295 Y31.301 E560.58388
G1 X137.471 Y32.242 E560.61240
G1 X137.540 Y33.642 E560.65414
G1 X137.547 Y34.025 E560.66555
G1 X137.541 Y34.537 E560.68080
G1 X137.491 Y35.271 E560.70272
G1 X137.343 Y36.798 E560.74841
G1 X137.260 Y37.555 E560.77109
G1 X136.993 Y39.076 E560.81708
G1 X136.878 Y39.649 E560.83449
G1 X136.177 Y42.081 E560.90987
G1 X136.113 Y42.283 E560.91618
G1 X135.744 Y43.116 E560.94332
G1 X135.409 Y43.940 E560.96981
G1 X135.050 Y44.653 E560.99358
G1 X134.902 Y44.892 E561.00196
G1 X134.145 Y45.856 E561.03846
G1 X133.674 Y46.363 E561.05907
G1 X133.354 Y46.728 E561.07353
G1 X132.678 Y47.400 E561.10192
G1 X132.285 Y47.773 E561.11806
G1 X131.614 Y48.368 E561.14477
G1 X130.258 Y49.629 E561.19992
G1 X129.136 Y50.585 E561.24382
G1 X128.503 Y51.065 E561.26748
G1 X127.813 Y51.567 E561.29289
G1 X127.289 Y51.925 E561.31179
G1 X126.634 Y52.354 E561.33511
G1 X125.965 Y52.725 E561.35790
G1 X125.186 Y53.148 E561.38430
G1 X124.439 Y53.609 E561.41044
G1 X123.900 Y53.960 E561.42960
G1 X122.785 Y54.699 E561.46944
G1 X121.880 Y55.218 E561.50051
G1 X120.586 Y55.809 E561.54288
G1 X119.425 Y56.279 E561.58018
G1 X118.444 Y56.692 E561.61189
G1 X118.001 Y56.900 E561.62646
G1 X116.551 Y58.020 E561.68103
G1 X115.696 Y58.784 E561.71518
G1 X115.146 Y59.218 E561.73605
G1 X114.185 Y59.871 E561.77065
G1 X113.385 Y60.361 E561.79859
G1 X112.945 Y60.625 E561.81388
G1 X112.215 Y61.116 E561.84008
G1 X111.821 Y61.456 E561.85558
G1 X111.000 Y62.275 E561.89012
G1 X110.924 Y62.388 E561.89417
G1 X110.686 Y62.702 E561.90591
G1 X110.423 Y63.228 E561.92342
G1 X110.353 Y63.416 E561.92940
G1 X110.175 Y64.059 E561.94927
G1 X110.060 Y64.729 E561.96951
G1 X109.996 Y65.064 E561.97967
G1 X109.780 Y67.152 E562.04219
G1 X109.699 Y67.824 E562.06235
G1 X109.592 Y68.338 E562.07799
G1 X109.369 Y69.148 E562.10301
G1 X109.089 Y69.875 E562.12621
G1 X108.947 Y70.223 E562.13741
G1 X108.580 Y70.928 E562.16108
G1 X108.192 Y71.614 E562.18455
G1 X107.861 Y72.121 E562.20259
G1 X107.342 Y73.037 E562.23394
G1 X107.055 Y73.600 E562.25276
G1 X106.980 Y73.771 E562.25832
G1 X106.972 Y73.960 E562.26396
G1 X106.742 Y74.630 E562.28506
G1 X106.708 Y74.921 E562.29378
G1 X106.326 Y75.739 E562.32067
G1 X106.051 Y76.356 E562.34079
G1 X105.758 Y76.964 E562.36089
G1 X105.586 Y77.425 E562.37555
G1 X105.426 Y78.010 E562.39361
G1 X105.280 Y78.569 E562.41082
G1 X105.118 Y79.600 E562.44190
G1 X105.025 Y80.574 E562.47104
G1 X105.016 Y80.700 E562.47480
G1 X105.059 Y80.989 E562.48350
G1 X105.058 Y81.207 E562.49000
G1 X105.092 Y81.471 E562.49793
G1 X105.121 Y82.163 E562.51855
G1 X105.107 Y82.330 E562.52354
G1 X105.201 Y83.113 E562.54703
G1 X105.206 Y83.468 E562.55761
G1 X105.264 Y84.188 E562.57912
G1 X105.245 Y84.888 E562.59998
G1 X105.270 Y85.330 E562.61316
G1 X105.342 Y85.727 E562.62518
G1 X105.372 Y86.408 E562.64548
G1 X105.368 Y86.768 E562.65620
G1 X105.441 Y87.206 E562.66943
G1 X105.408 Y88.309 E562.70229
G1 X105.388 Y88.701 E562.71398
G1 X105.319 Y89.235 E562.73002
G1 X105.220 Y90.048 E562.75441
G1 X105.183 Y91.605 E562.80080
G1 X105.186 Y92.573 E562.82963
G1 X105.240 Y93.447 E562.85571
G1 X105.305 Y94.096 E562.87514
G1 X105.343 Y94.288 E562.88097
G1 X105.459 Y95.760 E562.92494
G1 X105.438 Y96.387 E562.94363
G1 X105.498 Y96.811 E562.95638
G1 X105.515 Y97.072 E562.96417
G1 X105.504 Y98.246 E562.99914
G1 X105.548 Y99.046 E563.02300
G1 X105.551 Y99.571 E563.03864
G1 X105.507 Y101.568 E563.09813
G1 X105.505 Y102.005 E563.11115
G1 X105.438 Y103.243 E563.14807
G1 X105.388 Y104.093 E563.17343
G1 X105.391 Y104.323 E563.18028
G1 X105.385 Y104.482 E563.18502
G1 X105.362 Y104.678 E563.19090
G1 X105.348 Y105.335 E563.21047
G1 X105.145 Y106.760 E563.25334
G1 X105.061 Y107.284 E563.26915
G1 X104.916 Y107.941 E563.28918
G1 X104.652 Y108.995 E563.32155
G1 X104.555 Y109.353 E563.33259
G1 X104.485 Y109.947 E563.35041
G1 X104.431 Y110.473 E563.36615
G1 X104.449 Y110.763 E563.37481
G1 X104.593 Y111.174 E563.38778
G1 X104.823 Y111.602 E563.40225
G1 X105.340 Y112.139 E563.42445
G1 X105.545 Y112.315 E563.43250
G1 X105.824 Y112.517 E563.44276
G1 X106.276 Y112.776 E563.45827
G1 X106.963 Y113.013 E563.47992
G1 X107.704 Y113.158 E563.50241
G1 X108.674 Y113.252 E563.53143
G1 X112.775 Y113.500 E563.65380
G1 X113.585 Y113.618 E563.67817
G1 X114.419 Y113.799 E563.70359
G1 X114.961 Y113.935 E563.72024
G1 X115.632 Y114.140 E563.74113
G1 X116.703 Y114.537 E563.77515
G1 X117.684 Y115.036 E563.80793
G1 X118.397 Y115.477 E563.83290
G1 X119.568 Y116.383 E563.87700
G1 X119.820 Y116.600 E563.88690
G1 X120.546 Y117.376 E563.91855
G1 X120.988 Y117.931 E563.93968
G1 X121.618 Y118.757 E563.97062
G1 X121.986 Y119.301 E563.99018
G1 X122.353 Y119.870 E564.01035
G1 X122.993 Y120.975 E564.04838
G1 X123.406 Y121.786 E564.07549
G1 X123.620 Y122.239 E564.09041
G1 X123.868 Y122.841 E564.10980
G1 X124.337 Y124.171 E564.15180
G1 X124.516 Y124.794 E564.17111
G1 X124.755 Y125.840 E564.20306
G1 X124.902 Y126.689 E564.22873
G1 X124.991 Y127.368 E564.24912
G1 X125.134 Y129.005 E564.29806
G1 X125.177 Y130.517 E564.34311
G1 X125.174 Y130.649 E564.34705
G1 X124.906 Y132.624 E564.40641
G1 X124.590 Y133.989 E564.44814
G1 X124.258 Y135.040 E564.48096
G1 X124.080 Y135.546 E564.49694
G1 X123.824 Y136.228 E564.51864
G1 X123.652 Y136.763 E564.53537
G1 X123.186 Y137.884 E564.57153
G1 X122.965 Y138.411 E564.58855
G1 X122.674 Y139.064 E564.60984
G1 X122.420 Y139.514 E564.62523
G1 X121.826 Y140.332 E564.65534
G1 X121.526 Y140.720 E564.66995
G1 X120.797 Y141.554 E564.70294
G1 X119.763 Y142.908 E564.75368
G1 X119.342 Y143.363 E564.77214
G1 X118.750 Y143.919 E564.79633
G1 X118.282 Y144.337 E564.81502
G1 X117.227 Y145.181 E564.85526
G1 X116.632 Y145.508 E564.87548
G1 X115.455 Y146.202 E564.91618
G1 X114.779 Y146.574 E564.93916
G1 X114.580 Y146.650 E564.94550
G1 X114.018 Y146.914 E564.96400
G1 X113.213 Y147.316 E564.99079
G1 X112.609 Y147.534 E565.00992
G1 X112.107 Y147.744 E565.02613
G1 X111.482 Y148.062 E565.04701
G1 X111.222 Y148.180 E565.05552
G1 X111.050 Y148.285 E565.06152
G1 X110.481 Y148.564 E565.08039
G1 X110.121 Y148.738 E565.09230
G1 X109.511 Y148.958 E565.11161
G1 X108.736 Y149.216 E565.13594
G1 X107.952 Y149.453 E565.16033
G1 X106.640 Y149.782 E565.20062
G1 X105.962 Y149.944 E565.22138
G1 X105.566 Y150.053 E565.23361
G1 X104.903 Y150.135 E565.25351
G1 X104.280 Y150.183 E565.27212
G1 X104.111 Y150.179 E565.27716
G1 X103.296 Y150.087 E565.30158
G1 X103.160 Y150.071 E565.30566
